!!!COM: Haydn, Franz Joseph
!!!OPR: London Symphonies
!!!OTL: Symphonie Nr. 101
!!!XEN: Symphony No. 101 in D major
!!!OTP: "The Clock"
!!!OMV: Movement 3.
!!!YEC: Copyright 1996, Center for Computer Assisted Research in the Humanities
!!!YEM: Rights to all derivative electronic formats reserved.
!!!YEM: Refer to licensing agreement for further details.
!!
!! Menuetto and Trio
!! Menuetto.
!! Allegretto
**kern	**kern	**kern	**kern	**kern	**kern	**kern	**kern	**kern	**kern	**kern	**kern	**kern	**kern	**kern	**kern	**kern
!Violoncello e Contrabasso	!Viola	!Violino II	!Violino I	!Timpani in D, A	!Tromba 2 in D	!Tromba 1 in D	!Corno 2 in D	!Corno 1 in D	!Fagotto 2	!Fagotto 1	!Clarinetto 2 in A	!Clarinetto 1 in A	!Oboe 2	!Oboe 1	!Flauto 2	!Flauto 1
*Icello	*Iviola	*Ivioln	*Ivioln	*Itimpa	*Itromp	*Itromp	*Icor	*Icor	*Ifagot	*Ifagot	*Iclars	*Iclars	*Ioboe	*Ioboe	*Iflt	*Iflt
*Icbass	*	*	*	*	*	*	*	*	*	*	*	*	*	*	*	*
*ICstr	*ICstr	*ICstr	*ICstr	*ICidio	*ICbras	*ICbras	*ICbras	*ICbras	*ICww	*ICww	*ICww	*ICww	*ICww	*ICww	*ICww	*ICww
*clefF4	*clefC3	*clefG2	*clefG2	*clefF4	*clefG2	*clefG2	*clefG2	*clefG2	*clefF4	*clefF4	*clefG2	*clefG2	*clefG2	*clefG2	*clefG2	*clefG2
*k[f#c#]	*k[f#c#]	*k[f#c#]	*k[f#c#]	*k[f#c#]	*k[]	*k[]	*k[]	*k[]	*k[f#c#]	*k[f#c#]	*k[b-]	*k[b-]	*k[f#c#]	*k[f#c#]	*k[f#c#]	*k[f#c#]
*M3/4	*M3/4	*M3/4	*M3/4	*M3/4	*M3/4	*M3/4	*M3/4	*M3/4	*M3/4	*M3/4	*M3/4	*M3/4	*M3/4	*M3/4	*M3/4	*M3/4
*>[A,A,B,B,C,D,D,A,B]	*>[A,A,B,B,C,D,D,A,B]	*>[A,A,B,B,C,D,D,A,B]	*>[A,A,B,B,C,D,D,A,B]	*>[A,A,B,B,C,D,D,A,B]	*>[A,A,B,B,C,D,D,A,B]	*>[A,A,B,B,C,D,D,A,B]	*>[A,A,B,B,C,D,D,A,B]	*>[A,A,B,B,C,D,D,A,B]	*>[A,A,B,B,C,D,D,A,B]	*>[A,A,B,B,C,D,D,A,B]	*>[A,A,B,B,C,D,D,A,B]	*>[A,A,B,B,C,D,D,A,B]	*>[A,A,B,B,C,D,D,A,B]	*>[A,A,B,B,C,D,D,A,B]	*>[A,A,B,B,C,D,D,A,B]	*>[A,A,B,B,C,D,D,A,B]
*>A	*>A	*>A	*>A	*>A	*>A	*>A	*>A	*>A	*>A	*>A	*>A	*>A	*>A	*>A	*>A	*>A
!! Meas.154-end has horns playing C2 & C3 in bass clef. C2 is below the fundamental
!! of the D horn so I assume the horns are transposing up rather than down in these
!! measures (old notation). In Mvt.2, C2 & C3 in bass clef are notated but C2 is the
!! fundamental of the G horn and could sound as written, so "X" was kept the same.
4r	4r	4a/	4a/	4r	4r	4r	4r	4r	4r	4r	4a\	4a\	4a/	4a/	4a/	4a/
=1	=1	=1	=1	=1	=1	=1	=1	=1	=1	=1	=1	=1	=1	=1	=1	=1
4D'\	4A'/	4f#'/	4dd'\	4D\	4dd'\	4ff#'\	4d'\	4f#'\	4D'\	4D'\	4f#'/	4dd'\	4f#'/	4dd'\	4dd'\	4dd'\
4D'\	4A'/	4f#'/	4dd'\	4r	4dd'\	4ff#'\	4d'\	4f#'\	4D'\	4D'\	4f#'/	4dd'\	4f#'/	4dd'\	4dd'\	4dd'\
4E'\	4A'/	4g'/	4cc#'\	4r	4a'/	4ee'\	4A'/	4e'\	4E'\	4E'\	4e'/	4cc#'\	4g'/	4cc#'\	4cc#'\	4cc#'\
=2	=2	=2	=2	=2	=2	=2	=2	=2	=2	=2	=2	=2	=2	=2	=2	=2
2C#z/	2Az/	2gz/ 2A/	2eez\ 2a\	4AA/	2az/	2eez\	2Az/	2ez\	2C#z/	2C#z/	2gnz\	2eez\	2gz/	2eez\	2eez\	2eez\
.	.	.	.	4r	.	.	.	.	.	.	.	.	.	.	.	.
4r	4r	4r	(16dd\LL	4r	4r	4r	4r	4r	4r	4r	4r	(16dd\LL	4r	(16dd\LL	(16dd\LL	(16dd\LL
.	.	.	16cc#\	.	.	.	.	.	.	.	.	16cc#\	.	16cc#\	16cc#\	16cc#\
.	.	.	16b\	.	.	.	.	.	.	.	.	16b\	.	16b\	16b\	16b\
.	.	.	16a\JJ)	.	.	.	.	.	.	.	.	16a\JJ)	.	16a\JJ)	16a\JJ)	16a\JJ)
=3	=3	=3	=3	=3	=3	=3	=3	=3	=3	=3	=3	=3	=3	=3	=3	=3
4d'\	4A'/	4a'/	4ff#'\	4D'\	4dd'\	4ff#'\	4d'\	4f#'\	4d'\	4d'\	4dd'\	4ff#'\	4a'/	4ff#'\	4ff#'\	4ff#'\
4d'\	4A'/	4a'/	4ff#'\	4D'\	4dd'\	4ff#'\	4d'\	4f#'\	4d'\	4d'\	4dd'\	4ff#'\	4a'/	4ff#'\	4ff#'\	4ff#'\
4c#'\	4A'/	4a'/	4ee'\	4AA'/	4a'/	4ee'\	4A'/	4e'\	4c#'\	4c#'\	4cc#'\	4ee'\	4a'/	4ee'\	4ee'\	4ee'\
=4	=4	=4	=4	=4	=4	=4	=4	=4	=4	=4	=4	=4	=4	=4	=4	=4
4e\	4A/	4c#/	4gg\	4AA/	4a/	4ee\	4A/	4e\	4e\	4e\	4ee\	4ggn\	4a/	4gg\	4gg\	4gg\
4r	4r	4r	4r	4r	4r	4r	4r	4r	4r	4r	4r	4r	4r	4r	4r	4r
4r	(4A/ 4F#/	(4f#/	(4a/	4r	4r	4r	4r	4r	4r	4r	4r	4r	4r	4r	4r	(4a/
=5	=5	=5	=5	=5	=5	=5	=5	=5	=5	=5	=5	=5	=5	=5	=5	=5
2.r	4a\) 4f#\	4ff#\)	4aa\)	2.r	2.r	2.r	2.r	2.r	2.r	2.r	2.r	2.r	2.r	2.r	2.r	4aa\)
.	4a'\ 4f#\	4ff#'\	4aa'\	.	.	.	.	.	.	.	.	.	.	.	.	4aa'\
.	(4B/ 4G/	(4g/	(4b\	.	.	.	.	.	.	.	.	.	.	.	.	(4b\
=6	=6	=6	=6	=6	=6	=6	=6	=6	=6	=6	=6	=6	=6	=6	=6	=6
2.r	4b\) 4g\	4gg\)	4bb\)	2.r	2.r	2.r	2.r	2.r	2.r	2.r	2.r	2.r	2.r	2.r	2.r	4bb\)
.	4b'\ 4g\	4gg'\	4bb'\	.	.	.	.	.	.	.	.	.	.	.	.	4bb'\
.	4a\ 4f#\	4ff#\	4aa\	.	.	.	.	.	.	.	.	.	.	.	.	4aa\
=7	=7	=7	=7	=7	=7	=7	=7	=7	=7	=7	=7	=7	=7	=7	=7	=7
2.r	(4g#\ 4e#\	(4ee#\	(4gg#\	2.r	2.r	2.r	2.r	2.r	2.r	2.r	2.r	2.r	2.r	2.r	2.r	(4gg#\
.	4g\ 4e\	4ee\	4gg\	.	.	.	.	.	.	.	.	.	.	.	.	4gg\
.	4f#\) 4d\	4dd\)	4ff#\)	.	.	.	.	.	.	.	.	.	.	.	.	4ff#\)
=8	=8	=8	=8	=8	=8	=8	=8	=8	=8	=8	=8	=8	=8	=8	=8	=8
2.r	4e\ 4A\	4a/	4ee\	2.r	2.r	2.r	2.r	2.r	2.r	2.r	4r	4r	4r	4r	4r	4ee'\
.	4r	4r	4r	.	.	.	.	.	.	.	4r	4r	4r	4r	4r	4r
.	4r	4a/	4a/	.	.	.	.	.	.	.	4a\	4a\	4a/	4a/	4a/	4a/
=9	=9	=9	=9	=9	=9	=9	=9	=9	=9	=9	=9	=9	=9	=9	=9	=9
4D'\	4A'/	4f#'/	4dd'\	4D\	4dd'\	4ff#'\	4d'\	4f#'\	4D'\	4D'\	4f#'/	4dd'\	4f#'/	4dd'\	4dd'\	4dd'\
4D'\	4A'/	4f#'/	4dd'\	4r	4dd'\	4ff#'\	4d'\	4f#'\	4D'\	4D'\	4f#'/	4dd'\	4f#'/	4dd'\	4dd'\	4dd'\
4E'\	4A'/	4g'/	4cc#'\	4r	4a'/	4ee'\	4A'/	4e'\	4E'\	4E'\	4e'/	4cc#'\	4g'/	4cc#'\	4cc#'\	4cc#'\
=10	=10	=10	=10	=10	=10	=10	=10	=10	=10	=10	=10	=10	=10	=10	=10	=10
2C#z/	2Az/	2gz/ 2A/	2eez\ 2a\	4AA/	2az/	2eez\	2Az/	2ez\	2C#z/	2C#z/	4gnz\	4eez\	2gz/	2eez\	2eez\	2eez\
.	.	.	.	4r	.	.	.	.	.	.	4r	4r	.	.	.	.
4r	4r	4r	(16dd\LL	4r	4r	4r	4r	4r	4r	4r	4a\	4a\	4r	(16dd\LL	(16dd\LL	(16dd\LL
.	.	.	16cc#\	.	.	.	.	.	.	.	.	.	.	16cc#\	16cc#\	16cc#\
.	.	.	16b\	.	.	.	.	.	.	.	.	.	.	16b\	16b\	16b\
.	.	.	16a\JJ)	.	.	.	.	.	.	.	.	.	.	16a\JJ)	16a\JJ)	16a\JJ)
=11	=11	=11	=11	=11	=11	=11	=11	=11	=11	=11	=11	=11	=11	=11	=11	=11
4d'\	4d'\	4a'/	4ff#'\	4D\	4dd\	4ff#\	4d\	4f#\	4d'\	4d'\	2.dd\	4ff#'\	2a/	4ff#'\	4ff#'\	4ff#'\
(4d\	(4d\	(4a/	(4ff#\	4D\	4dd\	4ff#\	4d\	4f#\	(4d\	(4d\	.	(4ff#\	.	(4ff#\	(4ff#\	(4ff#\
4B\)	4B/)	4d/)	4gg#\)	4D\	4dd\	4dd\	4d\	4d\	4B\)	4B\)	.	4gg#\)	4dd\	4gg#\)	4gg#\)	4gg#\)
=12	=12	=12	=12	=12	=12	=12	=12	=12	=12	=12	=12	=12	=12	=12	=12	=12
4c#'\	4A'/	4e/	4aa'\	4AA/	2a/	2ee\	2A/	2e\	4c#'\	4c#'\	4cc#\	4aa\	4ee\	4aa'\	4aa'\	4aa'\
(4c#\	(4A/	2e/	(4aa\	4r	.	.	.	.	(4c#\	(4c#\	4r	4r	2ee\	(4aa\	(4aa\	(4aa\
4G#\)	4G#/)	.	4bb\)	4r	4r	4r	4r	4r	4G#\)	4G#\)	4r	4r	.	4bb\)	4bb\)	4bb\)
=13	=13	=13	=13	=13	=13	=13	=13	=13	=13	=13	=13	=13	=13	=13	=13	=13
4A'\	4A'/	4e/	4ccc#'\	2.r	2.r	2.r	2.r	2.r	4A'\	4A'\	2.r	2.r	4ee\	4ccc#'\	4ccc#'\	4ccc#'\
(4A\	(4A/	2e/	(4ccc#\	.	.	.	.	.	(4A\	(4A\	.	.	2ee\	(4ccc#\	(4ccc#\	(4ccc#\
4B\)	4B/)	.	4ddd\)	.	.	.	.	.	4B\)	4B\)	.	.	.	4ddd\)	4ddd\)	4ddd\)
=14	=14	=14	=14	=14	=14	=14	=14	=14	=14	=14	=14	=14	=14	=14	=14	=14
2c#\	4c#\	4e/	(8eee\L	2.r	4r	4r	4r	4r	2c#\	2c#\	2.r	2.r	4ee\	(8eee\L	(8eee\L	(8eee\L
.	.	.	8ddd\)	.	.	.	.	.	.	.	.	.	.	8ddd\)	8ddd\)	8ddd\)
.	4r	2e/	(8ccc#\	.	4r	4r	4r	4r	.	.	.	.	2ee\	(8ccc#\	(8ccc#\	(8ccc#\
.	.	.	8bb\	.	.	.	.	.	.	.	.	.	.	8bb\	8bb\	8bb\
4d\	4b\	.	8aa\	.	4ee\	4ee\	4e\	4e\	4d\	4d\	.	.	.	8aa\	8aa\	8aa\
.	.	.	8gg#\J)	.	.	.	.	.	.	.	.	.	.	8gg#\J)	8gg#\J)	8gg#\J)
=15	=15	=15	=15	=15	=15	=15	=15	=15	=15	=15	=15	=15	=15	=15	=15	=15
2c#\	4e\	4e/	(8bb\L	4AA/	2a/	2ee\	2A/	2e\	2c#\	2c#\	2.r	2.r	4ee\	(8bb\L	(8bb\L	(8bb\L
.	.	.	8aa\)	.	.	.	.	.	.	.	.	.	.	8aa\)	8aa\)	8aa\)
.	4r	2e/	(8gg#\	4r	.	.	.	.	.	.	.	.	2ee\	(8gg#\	(8gg#\	(8gg#\
.	.	.	8ff#\	.	.	.	.	.	.	.	.	.	.	8ff#\	8ff#\	8ff#\
4d\	4b\	.	8ee\	4r	4ee\	4ee\	4e\	4e\	4d\	4d\	.	.	.	8ee\	8ee\	8ee\
.	.	.	8gg#\J)	.	.	.	.	.	.	.	.	.	.	8gg#\J)	8gg#\J)	8gg#\J)
=16	=16	=16	=16	=16	=16	=16	=16	=16	=16	=16	=16	=16	=16	=16	=16	=16
2c#\	4e\	4e/	(8bb\L	4AA/	2a/	2ee\	2A/	2e\	2c#\	2c#\	2.r	2.r	4ee\	(8bb\L	(8bb\L	(8bb\L
.	.	.	8aa\)	.	.	.	.	.	.	.	.	.	.	8aa\)	8aa\)	8aa\)
.	4r	2e/	(8gg#\	4r	.	.	.	.	.	.	.	.	2ee\	(8gg#\	(8gg#\	(8gg#\
.	.	.	8ff#\	.	.	.	.	.	.	.	.	.	.	8ff#\	8ff#\	8ff#\
4d\	4b\	.	8ee\	4r	4ee\	4ee\	4e\	4e\	4d\	4d\	.	.	.	8ee\	8ee\	8ee\
.	.	.	8gg#\J)	.	.	.	.	.	.	.	.	.	.	8gg#\J)	8gg#\J)	8gg#\J)
=17	=17	=17	=17	=17	=17	=17	=17	=17	=17	=17	=17	=17	=17	=17	=17	=17
2.c#\	4e\	4e/	(8bb\L	4AA/	2.a/	2.ee\	2.A/	2.e\	2.c#\	2.c#\	2.r	2.r	4ee\	(8bb\L	(8bb\L	(8bb\L
.	.	.	8aa\)	.	.	.	.	.	.	.	.	.	.	8aa\)	8aa\)	8aa\)
.	4r	2e/	(8gg#\	4r	.	.	.	.	.	.	.	.	2ee\	(8gg#\	(8gg#\	(8gg#\
.	.	.	8ff#\	.	.	.	.	.	.	.	.	.	.	8ff#\	8ff#\	8ff#\
.	4c#\	.	8ee\	4r	.	.	.	.	.	.	.	.	.	8ee\	8ee\	8ee\
.	.	.	8dd\J)	.	.	.	.	.	.	.	.	.	.	8dd\J)	8dd\J)	8dd\J)
=18	=18	=18	=18	=18	=18	=18	=18	=18	=18	=18	=18	=18	=18	=18	=18	=18
2d\	4d\	2f#/	(8cc#\L	4D\	2.dd\	2.ff#\	2.d\	2.f#\	2d\	2d\	2.r	2.r	2ff#\	(8cc#\L	(8cc#\L	(8cc#\L
.	.	.	8b\)	.	.	.	.	.	.	.	.	.	.	8b\)	8b\)	8b\)
.	4r	.	(8ff#\	4r	.	.	.	.	.	.	.	.	.	(8ff#\	(8ff#\	(8ff#\
.	.	.	8dd\	.	.	.	.	.	.	.	.	.	.	8dd\	8dd\	8dd\
4D\	4d\	8e/L	8cc#\	4r	.	.	.	.	4D\	4D\	.	.	8ee\L	8cc#\	8cc#\	8cc#\
.	.	8d/J	8b\J)	.	.	.	.	.	.	.	.	.	8dd\J	8b\J)	8b\J)	8b\J)
=19	=19	=19	=19	=19	=19	=19	=19	=19	=19	=19	=19	=19	=19	=19	=19	=19
2E\	4e\	2c#/	(8a\L	2.r	2.ee\	2.ee\	2.e\	2.e\	2E\	2E\	2.r	2.r	2cc#\	(8a\L	(8a\L	(8a\L
.	.	.	8ee\	.	.	.	.	.	.	.	.	.	.	8ee\	8ee\	8ee\
.	4r	.	8cc#\)	.	.	.	.	.	.	.	.	.	.	8cc#\)	8cc#\)	8cc#\)
.	.	.	8a'\	.	.	.	.	.	.	.	.	.	.	8a'\	8a'\	8a'\
4E\	4e\	8d/L	(8b\	.	.	.	.	.	4E\	4E\	.	.	8dd\L	(8b\	(8b\	(8b\
.	.	8B/J	8g#\J)	.	.	.	.	.	.	.	.	.	8b\J	8g#\J)	8g#\J)	8g#\J)
=20	=20	=20	=20	=20	=20	=20	=20	=20	=20	=20	=20	=20	=20	=20	=20	=20
4AA/	4A/	4c#/	4a/	4AA/	4a/	4ee\	4A/	4e\	4AA/	4AA/	[2.cc#z\	[2.eez\	4cc#\	4a/	4a/	4a/
4r	4r	[2cc#z\	[2ee\	4r	4r	4r	4r	4r	4r	4r	.	.	[2cc#z\	[2eez\	[2ee\	[2ee\
4Az\	4az\	.	.	4r	4r	4r	4r	4r	(4A\	(4A\	.	.	.	.	.	.
=21	=21	=21	=21	=21	=21	=21	=21	=21	=21	=21	=21	=21	=21	=21	=21	=21
4D\	4d\	4cc#\]	4ee\]	2.r	2.r	2.r	2.r	2.r	4D\)	4D\)	4cc#\]	4ee\]	4cc#\]	4ee\]	4ee\]	4ee\]
4r	4r	[2ddz\	[2ff#\	.	.	.	.	.	4r	4r	[2ddz\	[2ff#z\	[2ddz\	[2ff#z\	[2ff#\	[2ff#\
4BBz/	4Bz/	.	.	.	.	.	.	.	(4BBz/	(4BBz/	.	.	.	.	.	.
=22	=22	=22	=22	=22	=22	=22	=22	=22	=22	=22	=22	=22	=22	=22	=22	=22
4E\	4e\	4dd\]	4ff#\]	2.r	2.r	2.r	2.r	2.r	4E\)	4E\)	4dd\]	4ff#\]	4dd\]	4ff#\]	4ff#\]	4ff#\]
4r	4r	8b\L	8gg#\L	.	.	.	.	.	4r	4r	8g#\L	8b\L	8b\L	8gg#\L	8gg#\L	8gg#\L
.	.	8cc#\	8aa\	.	.	.	.	.	.	.	8a\	8cc#\	8cc#\	8aa\	8aa\	8aa\
4E\	4e\	8dd\	8bb\	.	.	.	.	.	4E\	4E\	8b\	8dd\	8dd\	8bb\	8bb\	8bb\
.	.	8b\J	8gg#\J	.	.	.	.	.	.	.	8g#\J	8b\J	8b\J	8gg#\J	8gg#\J	8gg#\J
=23	=23	=23	=23	=23	=23	=23	=23	=23	=23	=23	=23	=23	=23	=23	=23	=23
4A\	4A/	4cc#\	4aa\	2.r	2.r	2.r	2.r	2.r	4A\	4A\	4a\	4cc#\	4cc#\	4aa\	4aa\	4aa\
[2c#z\	[2c#z\	[2ez/	4r	.	.	.	.	.	[2c#z\	[2c#z\	4r	4r	4r	4r	4r	4r
.	.	.	4az/	.	.	.	.	.	.	.	4r	4r	4r	4r	4az/	4az/
=24	=24	=24	=24	=24	=24	=24	=24	=24	=24	=24	=24	=24	=24	=24	=24	=24
4c#\]	4c#\]	4e/]	2aa\	2.r	2.r	2.r	2.r	2.r	4c#\]	4c#\]	2.r	2.r	2.r	2.r	2aa\	2aa\
[2dz\	[2dz\	[2f#z/	.	.	.	.	.	.	[2dz\	[2dz\	.	.	.	.	.	.
.	.	.	4aa#z\	.	.	.	.	.	.	.	.	.	.	.	4aa#z'\	4aa#z'\
=25	=25	=25	=25	=25	=25	=25	=25	=25	=25	=25	=25	=25	=25	=25	=25	=25
4d\]	4d\]	4f#/]	4bb'\	2.r	4r	4r	4r	4r	4d\]	4d\]	2.r	2.r	4r	4r	4bb'\	4bb'\
4B'\	4B'/	4d'/	4ddd'\	.	4r	4r	4r	4r	4B'\	4B'\	.	.	4r	4r	4ddd'\	4ddd'\
4e'\	4e'\	4B'/	4gg#'\	.	4ee\	4ee\	4e\	4e\	4e'\	4e'\	.	.	(4dd\	(4gg#\	4gg#'\	4gg#'\
=26	=26	=26	=26	=26	=26	=26	=26	=26	=26	=26	=26	=26	=26	=26	=26	=26
4A\	4A/	4c#/	(8aa\L	4AA/	2a/	2aa\	2A/	2a\	4A\	4A\	4a\	4cc#\	4cc#\)	4aa\)	(8aa\L	(8aa\L
.	.	.	8gg#\	.	.	.	.	.	.	.	.	.	.	.	8gg#\	8gg#\
4r	4r	4r	8aa\)	4r	.	.	.	.	4r	4r	4r	4r	4r	4r	8aa\)	8aa\)
.	.	.	8ee\	.	.	.	.	.	.	.	.	.	.	.	8ee\	8ee\
4E\	8g#\L	4dd/ 4e/	8bb\	4r	4ee\	4ee\	4e\	4e\	4E\	4E\	(4b\	(4dd\	(4dd\	(4gg#\	8bb\	8bb\
.	8b\J	.	8gg#\J	.	.	.	.	.	.	.	.	.	.	.	8gg#\J	8gg#\J
=27	=27	=27	=27	=27	=27	=27	=27	=27	=27	=27	=27	=27	=27	=27	=27	=27
4A\	4a\	4cc#/ 4e/	(8aa\L	4AA/	2a/	2aa\	2A/	2a\	4A\	4A\	4a\)	4cc#\)	4cc#\)	4aa\)	(8aa\L	(8aa\L
.	.	.	8gg#\	.	.	.	.	.	.	.	.	.	.	.	8gg#\	8gg#\
4r	4r	4r	8aa\)	4r	.	.	.	.	4r	4r	4r	4r	4r	4r	8aa\)	8aa\)
.	.	.	8ee\	.	.	.	.	.	.	.	.	.	.	.	8ee\	8ee\
4E\	8g#\L	4dd/ 4e/	8bb\	4r	4ee\	4ee\	4e\	4e\	4E\	4E\	(4b\	(4dd\	(4dd\	(4gg#\	8bb\	8bb\
.	8b\J	.	8gg#\J	.	.	.	.	.	.	.	.	.	.	.	8gg#\J	8gg#\J
=28	=28	=28	=28	=28	=28	=28	=28	=28	=28	=28	=28	=28	=28	=28	=28	=28
4A\	4a\	4cc#/ 4e/	4aa\	4AA/	4a/	4aa\	4A/	4a\	4A\	4A\	4a\)	4cc#\)	4cc#\)	4aa\)	4aa\	4aa\
4r	4r	4r	4r	4r	4r	4r	4r	4r	4r	4r	4r	4r	4r	4r	4r	4r
=:||:@	=:||:@	=:||:@	=:||:@	=:||:@	=:||:@	=:||:@	=:||:@	=:||:@	=:||:@	=:||:@	=:||:@	=:||:@	=:||:@	=:||:@	=:||:@	=:||:@
*>B	*>B	*>B	*>B	*>B	*>B	*>B	*>B	*>B	*>B	*>B	*>B	*>B	*>B	*>B	*>B	*>B
4r	4r	4f#'/	4a'/	4r	4r	4r	4r	4r	4r	4r	4r	4r	4r	4r	4r	4r
=29	=29	=29	=29	=29	=29	=29	=29	=29	=29	=29	=29	=29	=29	=29	=29	=29
2.r	2.r	(4e#/	(4g#/	(4AA'/	2.r	2.r	2.r	2.r	2.r	2.r	2.r	2.r	2.r	2.r	2.r	2.r
.	.	4e/	4g/	4AA'/	.	.	.	.	.	.	.	.	.	.	.	.
.	.	4d/)	4f#/)	4AA'/)	.	.	.	.	.	.	.	.	.	.	.	.
=30	=30	=30	=30	=30	=30	=30	=30	=30	=30	=30	=30	=30	=30	=30	=30	=30
2.r	2.r	4A/	4e/	4AA/	2.r	2.r	4r	4r	2.r	2.r	2.r	2.r	4r	4r	2.r	2.r
.	.	4r	4r	4r	.	.	4r	4r	.	.	.	.	4r	4r	.	.
.	.	4r	4r	4r	.	.	4d'\	4f#'\	.	.	.	.	4dd'\	4ff#'\	.	.
=31	=31	=31	=31	=31	=31	=31	=31	=31	=31	=31	=31	=31	=31	=31	=31	=31
2.r	2.r	2.r	2.r	2.r	2.r	2.r	(4f#\	(4a\	2.r	2.r	2.A/	2.a\	(4ff#\	(4aa\	2.r	2.r
.	.	.	.	.	.	.	4e\	4g\	.	.	.	.	4ee\	4gg\	.	.
.	.	.	.	.	.	.	4A/)	4e\)	.	.	.	.	4cc#\)	4ee\)	.	.
=32	=32	=32	=32	=32	=32	=32	=32	=32	=32	=32	=32	=32	=32	=32	=32	=32
2.r	2.r	4r	4r	2.r	2.r	2.r	4d\	4f#\	2.r	2.r	4d/	4dd\	4dd\	4ff#\	2.r	2.r
.	.	4r	4r	.	.	.	4r	4r	.	.	4r	4r	4r	4r	.	.
.	.	4b'\	4dd'\	.	.	.	4r	4r	.	.	4r	4r	4r	4r	.	.
=33	=33	=33	=33	=33	=33	=33	=33	=33	=33	=33	=33	=33	=33	=33	=33	=33
2.r	2.r	(4a#/	(4cc#\	(4D'\	2.r	2.r	2.r	2.r	2.r	2.r	2.r	2.r	2.r	2.r	2.r	2.r
.	.	4a/	4cc\	4D'\	.	.	.	.	.	.	.	.	.	.	.	.
.	.	4g/)	4b\)	4D'\)	.	.	.	.	.	.	.	.	.	.	.	.
=34	=34	=34	=34	=34	=34	=34	=34	=34	=34	=34	=34	=34	=34	=34	=34	=34
2.r	2.r	4f#/	4a/	4D\	2.r	2.r	2.r	2.r	2.r	2.r	2.r	2.r	4r	4r	4r	4r
.	.	4r	4r	4r	.	.	.	.	.	.	.	.	4r	4r	4r	4r
.	.	4b\	4bb\	4r	.	.	.	.	.	.	.	.	4b\	4bb\	4bb\	4bb\
=35	=35	=35	=35	=35	=35	=35	=35	=35	=35	=35	=35	=35	=35	=35	=35	=35
4r	4r	(4dd\	(4ddd\	2.r	2.r	2.r	2.r	2.r	4r	4r	2.r	2.r	(4dd\	(4ddd\	(4ddd\	(4ddd\
4r	4r	4cc\	4ccc\	.	.	.	.	.	4r	4r	.	.	4cc\	4ccc\	4ccc\	4ccc\
4d#\	4d#\	4b\)	4bb\)	.	.	.	.	.	4d#\	4d#\	.	.	4b\)	4bb\)	4bb\)	4bb\)
=36	=36	=36	=36	=36	=36	=36	=36	=36	=36	=36	=36	=36	=36	=36	=36	=36
(4f#\	(4f#\	(4a/	(4aa\	2.r	2.r	2.r	2.r	2.r	(4f#\	(4f#\	2.r	2.r	(4a/	(4aa\	(4aa\	(4aa\
4e\	4e\	4g/)	4gg\)	.	.	.	.	.	4e\	4e\	.	.	4g/	4gg\)	4gg\)	4gg\)
4d\)	4d\)	4b\	4bb\	.	.	.	.	.	4d\)	4d\)	.	.	4b\)	4bb\	4bb\	4bb\
=37	=37	=37	=37	=37	=37	=37	=37	=37	=37	=37	=37	=37	=37	=37	=37	=37
2c#\	2c#\	(4b-\	(4bb-\	2.r	2.r	2.r	2.r	2.r	2c#\	2c#\	2.r	2.r	(4b-\	(4bb-\	(4bb-\	(4bb-\
.	.	4a/	4aa\	.	.	.	.	.	.	.	.	.	4a/	4aa\	4aa\	4aa\
4e\	4e\	4g/)	4gg\)	.	.	.	.	.	4e\	4e\	.	.	4g/)	4gg\)	4gg\)	4gg\)
=38	=38	=38	=38	=38	=38	=38	=38	=38	=38	=38	=38	=38	=38	=38	=38	=38
(4d\	(4d\	2f#/	2ff#\	2.r	2.r	2.r	2.r	2.r	(4d\	(4d\	4r	4r	2f#/	2ff#\	2ff#\	2ff#\
4c#\	4c#\	.	.	.	.	.	.	.	4c#\	4c#\	4r	4r	.	.	.	.
4c\)	4c\)	4a/	4aa\	.	.	.	.	.	4c\)	4c\)	4a\	4aa\	4a/	4aa\	4aa\	4aa\
=39	=39	=39	=39	=39	=39	=39	=39	=39	=39	=39	=39	=39	=39	=39	=39	=39
(4B\	(4B/	(4g/	(4gg\	2.r	2.r	2.r	2.r	2.r	(4B\	(4B\	(4gn\	(4ggn\	(4g/	(4gg\	(4gg\	(4gg\
4A\	4A/	4f#/	4ff#\	.	.	.	.	.	4A\	4A\	4f#/	4ff#\	4f#/	4ff#\	4ff#\	4ff#\
4G\)	4G/)	4e/)	4ee\)	.	.	.	.	.	4G\)	4G\)	4e/)	4ee\)	4ee\)	4ee\)	4ee\)	4ee\)
=40	=40	=40	=40	=40	=40	=40	=40	=40	=40	=40	=40	=40	=40	=40	=40	=40
(4F#\	(4F#/	(4d/	(4dd\	2.r	2.r	2.r	2.r	2.r	(4F#\	(4F#\	(4d/	(4dd\	(4dd\	(4dd\	(4dd\	(4dd\
4E\	4E/	4c#/	4cc#\	.	.	.	.	.	4E\	4E\	4c#/	4cc#\	4cc#\	4cc#\	4cc#\	4cc#\
4D\)	4D/)	4d/)	4dd\)	.	.	.	.	.	4D\)	4D\)	4d/)	4dd\)	4dd\)	4dd\)	4dd\)	4dd\)
=41	=41	=41	=41	=41	=41	=41	=41	=41	=41	=41	=41	=41	=41	=41	=41	=41
2C#/	(4C#/	(4A/	(4ee\	2.r	2.r	2.r	2.r	2.r	2C#/	2C#/	(4a\	(4ee\	(4a/	(4ee\	(4ee\	(4ee\
.	4A/	4e/	4gg\	.	.	.	.	.	.	.	4ee\	4ggn\	4ee\	4gg\	4gg\	4gg\
4D\	4A/)	4d/)	4ff#\)	.	.	.	.	.	4D\	4D\	4dd\)	4ff#\)	4dd\)	4ff#\)	4ff#\)	4ff#\)
=42	=42	=42	=42	=42	=42	=42	=42	=42	=42	=42	=42	=42	=42	=42	=42	=42
4AA/	[2.A/	2c#/	2ee\	2.r	2.r	2.r	2.r	2.r	4AA/	4AA/	2cc#\	2ee\	2.cc#\	2ee\	2ee\	2ee\
4AA/	.	.	.	.	.	.	.	.	4AA/	4AA/	.	.	.	.	.	.
4AA/	.	4e/ 4c#/	4aa\	.	.	.	.	.	4AA/	4AA/	4cc#\	4cc#\	.	4aa\	4aa\	4aa\
=43	=43	=43	=43	=43	=43	=43	=43	=43	=43	=43	=43	=43	=43	=43	=43	=43
4AA/	2.A_/	2.d/ 2.B/	(8gg#\L	2.r	2.r	2.r	2.r	2.r	4AA/	4AA/	2.g#\	2.dd\	2.dd\	2.gg#\	(8gg#\L	(8gg#\L
.	.	.	8ff#\	.	.	.	.	.	.	.	.	.	.	.	8ff#\	8ff#\
4AA/	.	.	8ee\)	.	.	.	.	.	4AA/	4AA/	.	.	.	.	8ee\)	8ee\)
.	.	.	8dd'\	.	.	.	.	.	.	.	.	.	.	.	8dd'\	8dd'\
4AA/	.	.	8cc#'\	.	.	.	.	.	4AA/	4AA/	.	.	.	.	8cc#'\	8cc#'\
.	.	.	8b'\J	.	.	.	.	.	.	.	.	.	.	.	8b'\J	8b'\J
=44	=44	=44	=44	=44	=44	=44	=44	=44	=44	=44	=44	=44	=44	=44	=44	=44
4AA/	2.A_/	2.e/ 2.c#/	8a'\L	2.r	2.r	2.r	2.r	2.r	4AA/	4AA/	2.a\	2.cc#\	2.cc#\	2.aa\	4a/	4a/
.	.	.	8ee'\	.	.	.	.	.	.	.	.	.	.	.	.	.
4AA/	.	.	8dd'\	.	.	.	.	.	4AA/	4AA/	.	.	.	.	4r	4r
.	.	.	8cc#'\	.	.	.	.	.	.	.	.	.	.	.	.	.
4AA/	.	.	8b'\	.	.	.	.	.	4AA/	4AA/	.	.	.	.	4aa\	4aa\
.	.	.	8a'\J	.	.	.	.	.	.	.	.	.	.	.	.	.
=45	=45	=45	=45	=45	=45	=45	=45	=45	=45	=45	=45	=45	=45	=45	=45	=45
4AA/	2.A_/	2.d/ 2.B/	(8g#/L	2.r	2.r	2.r	2.r	2.r	4AA/	4AA/	2.g#\	2.dd\	2.dd\	2.gg#\	(8gg#\L	(8gg#\L
.	.	.	8f#/	.	.	.	.	.	.	.	.	.	.	.	8ff#\	8ff#\
4AA/	.	.	8e/)	.	.	.	.	.	4AA/	4AA/	.	.	.	.	8ee\)	8ee\)
.	.	.	8d'/	.	.	.	.	.	.	.	.	.	.	.	8dd'\	8dd'\
4AA/	.	.	8c#'/	.	.	.	.	.	4AA/	4AA/	.	.	.	.	8cc#'\	8cc#'\
.	.	.	8B'/J	.	.	.	.	.	.	.	.	.	.	.	8b'\J	8b'\J
=46	=46	=46	=46	=46	=46	=46	=46	=46	=46	=46	=46	=46	=46	=46	=46	=46
4AA/	4A/]	4e/ 4c#/	(8A/L	2.r	2.r	2.r	2.r	2.r	4AA/	4AA/	4a\	4cc#\	4cc#\	4aa\	4a/	4a/
.	.	.	8G#/	.	.	.	.	.	.	.	.	.	.	.	.	.
4r	4r	4r	8A/)	.	.	.	.	.	4r	4r	4r	4r	4r	4r	4r	4r
.	.	.	8B/	.	.	.	.	.	.	.	.	.	.	.	.	.
4r	4r	4r	8c#/	.	.	.	.	.	4r	4r	4r	4r	4r	4r	4r	4r
.	.	.	8d/J	.	.	.	.	.	.	.	.	.	.	.	.	.
=47	=47	=47	=47	=47	=47	=47	=47	=47	=47	=47	=47	=47	=47	=47	=47	=47
2.r	2.r	2.r	(8e/L	2.r	2.r	2.r	2.r	2.r	2.r	2.r	2.r	2.r	2.r	2.r	2.r	2.r
.	.	.	8c#/	.	.	.	.	.	.	.	.	.	.	.	.	.
.	.	.	8A/)	.	.	.	.	.	.	.	.	.	.	.	.	.
.	.	.	8B/	.	.	.	.	.	.	.	.	.	.	.	.	.
.	.	.	8c#/	.	.	.	.	.	.	.	.	.	.	.	.	.
.	.	.	8d/J	.	.	.	.	.	.	.	.	.	.	.	.	.
=48	=48	=48	=48	=48	=48	=48	=48	=48	=48	=48	=48	=48	=48	=48	=48	=48
2.r	2.r	2.r	8e/L	2.r	2.r	2.r	2.r	2.r	2.r	2.r	2.r	2.r	2.r	2.r	2.r	2.r
.	.	.	8f#/	.	.	.	.	.	.	.	.	.	.	.	.	.
.	.	.	8g/	.	.	.	.	.	.	.	.	.	.	.	.	.
.	.	.	8a/	.	.	.	.	.	.	.	.	.	.	.	.	.
.	.	.	8b/	.	.	.	.	.	.	.	.	.	.	.	.	.
.	.	.	8cc#/J	.	.	.	.	.	.	.	.	.	.	.	.	.
=49	=49	=49	=49	=49	=49	=49	=49	=49	=49	=49	=49	=49	=49	=49	=49	=49
4D'\	4A'/	4f#'/	4dd'\	4D\	4dd'\	4ff#'\	4d'\	4f#'\	4D'\	4D'\	4f#/	4dd\	4f#'/	4dd'\	4dd'\	4dd'\
4D'\	4A'/	4f#'/	4dd'\	4D\	4dd'\	4ff#'\	4d'\	4f#'\	4D'\	4D'\	4f#/	4dd\	4f#'/	4dd'\	4dd'\	4dd'\
4E'\	4A'/	4g'/	4cc#'\	4AA/	4a'/	4ee'\	4A'/	4e'\	4E'\	4E'\	4e/	4cc#\	4g'/	4cc#'\	4cc#'\	4cc#'\
=50	=50	=50	=50	=50	=50	=50	=50	=50	=50	=50	=50	=50	=50	=50	=50	=50
2C#z/	2Az/	2gz/ 2A/	2eez\ 2a\	4AA/	2az/	2eez\	2Az/	2ez\	2C#z/	2C#z/	2gnz\	2eez\	2gz/	2eez\	2eez\	2eez\
.	.	.	.	4r	.	.	.	.	.	.	.	.	.	.	.	.
4r	4r	4r	(16dd\LL	4r	4r	4r	4r	4r	4r	4r	4r	(16dd\LL	4r	(16dd\LL	(16dd\LL	(16dd\LL
.	.	.	16cc#\	.	.	.	.	.	.	.	.	16cc#\	.	16cc#\	16cc#\	16cc#\
.	.	.	16b\	.	.	.	.	.	.	.	.	16b\	.	16b\	16b\	16b\
.	.	.	16a\JJ)	.	.	.	.	.	.	.	.	16a\JJ)	.	16a\JJ)	16a\JJ)	16a\JJ)
=51	=51	=51	=51	=51	=51	=51	=51	=51	=51	=51	=51	=51	=51	=51	=51	=51
4d'\	4A'/	4a'/	4ff#'\	4D\	4dd'\	4ff#'\	4d'\	4f#'\	4d'\	4d'\	4dd'\	4ff#'\	4a'/	4ff#'\	4ff#'\	4ff#'\
4d'\	4A'/	4a'/	4ff#'\	4D\	4dd'\	4ff#'\	4d'\	4f#'\	4d'\	4d'\	4dd'\	4ff#'\	4a'/	4ff#'\	4ff#'\	4ff#'\
4c#'\	4A'/	4a'/	4ee'\	4AA/	4a'/	4ee'\	4A'/	4e'\	4c#'\	4c#'\	4cc#'\	4ee'\	4a'/	4ee'\	4ee'\	4ee'\
=52	=52	=52	=52	=52	=52	=52	=52	=52	=52	=52	=52	=52	=52	=52	=52	=52
4e\	4A/	4c#/	4gg\	4AA/	4a/	4ee\	4A/	4e\	4e\	4e\	4ee\	4ggn\	4a/	4gg\	4gg\	4gg\
4r	4r	4r	4r	4r	4r	4r	4r	4r	4r	4r	4r	4r	4r	4r	4r	4r
4r	(4A/ 4F#/	(4f#/	(4a/	4r	4r	4r	4r	4r	4r	4r	4r	4r	4r	4r	4r	(4a/
=53	=53	=53	=53	=53	=53	=53	=53	=53	=53	=53	=53	=53	=53	=53	=53	=53
2.r	4a\) 4f#\	4ff#\)	4aa\)	2.r	2.r	2.r	2.r	2.r	2.r	2.r	2.r	2.r	2.r	2.r	2.r	4aa\)
.	4a'\ 4f#\	4ff#'\	4aa'\	.	.	.	.	.	.	.	.	.	.	.	.	4aa'\
.	(4B/ 4G/	(4g/	(4b\	.	.	.	.	.	.	.	.	.	.	.	.	(4b\
=54	=54	=54	=54	=54	=54	=54	=54	=54	=54	=54	=54	=54	=54	=54	=54	=54
2.r	4b\) 4g\	4gg\)	4bb\)	2.r	2.r	2.r	2.r	2.r	2.r	2.r	2.r	2.r	2.r	2.r	2.r	4bb\)
.	4b'\ 4g\	4gg'\	4bb'\	.	.	.	.	.	.	.	.	.	.	.	.	4bb'\
.	4a\ 4f#\	4ff#\	4aa\	.	.	.	.	.	.	.	.	.	.	.	.	4aa\
=55	=55	=55	=55	=55	=55	=55	=55	=55	=55	=55	=55	=55	=55	=55	=55	=55
2.r	(4g#\ 4e#\	(4ee#\	(4gg#\	2.r	2.r	2.r	2.r	2.r	2.r	2.r	2.r	2.r	2.r	2.r	2.r	(4gg#\
.	4g\ 4e\	4ee\	4gg\	.	.	.	.	.	.	.	.	.	.	.	.	4gg\
.	4f#\) 4d\	4dd\)	4ff#\)	.	.	.	.	.	.	.	.	.	.	.	.	4ff#\)
=56	=56	=56	=56	=56	=56	=56	=56	=56	=56	=56	=56	=56	=56	=56	=56	=56
2.r	4e\ 4A\	4cc#\	4ee\	2.r	2.r	2.r	2.r	2.r	2.r	2.r	2.r	2.r	2.r	2.r	4r	4ee\
.	4r	4r	4r	.	.	.	.	.	.	.	.	.	.	.	4r	4r
.	4r	4a/	4a/	.	.	.	.	.	.	.	.	.	.	.	4a/	4a/
=57	=57	=57	=57	=57	=57	=57	=57	=57	=57	=57	=57	=57	=57	=57	=57	=57
4r	4r	4f#'/	4dd'\	2.r	2.r	2.r	2.r	2.r	2.r	2.r	2.r	2.r	2.r	2.r	4dd'\	4dd'\
4r	4r	4f#'/	4dd'\	.	.	.	.	.	.	.	.	.	.	.	4dd'\	4dd'\
4AA/	4A/	4e'/	4cc#'\	.	.	.	.	.	.	.	.	.	.	.	4cc#'\	4cc#'\
=58	=58	=58	=58	=58	=58	=58	=58	=58	=58	=58	=58	=58	=58	=58	=58	=58
4A\	4a\	2g/	2ee\	2.r	2.r	2.r	2.r	2.r	2.r	2.r	2.r	2.r	2.r	2.r	2ee\	2ee\
4A'\	4a'\	.	.	.	.	.	.	.	.	.	.	.	.	.	.	.
4r	4r	4r	(16dd\LL	.	.	.	.	.	.	.	.	.	.	.	(16dd\LL	(16dd\LL
.	.	.	16cc#\	.	.	.	.	.	.	.	.	.	.	.	16cc#\	16cc#\
.	.	.	16b\	.	.	.	.	.	.	.	.	.	.	.	16b\	16b\
.	.	.	16a\JJ)	.	.	.	.	.	.	.	.	.	.	.	16a\JJ)	16a\JJ)
=59	=59	=59	=59	=59	=59	=59	=59	=59	=59	=59	=59	=59	=59	=59	=59	=59
2.r	2.r	4dd'\	4ff#'\	2.r	4r	4r	4r	4r	4r	4r	4r	4r	4r	4r	4ff#'\	4ff#'\
.	.	4dd'\	4ff#'\	.	4r	4r	4r	4r	4r	4r	4r	4r	4r	4r	4ff#'\	4ff#'\
.	.	4cc#'\	4ee'\	.	4a/	4a/	4A/	4A/	4AA/	4AA/	4A/	4a\	4a/	4a/	4ee'\	4ee'\
=60	=60	=60	=60	=60	=60	=60	=60	=60	=60	=60	=60	=60	=60	=60	=60	=60
4r	4r	2ee\	2gg\	4r	4aa\	4aa\	4a\	4a\	4A\	4A\	4a\	4aa\	4aa\	4aa\	2gg\	2gg\
4r	4r	.	.	4r	4aa'\	4aa'\	4a'\	4a'\	4A'\	4A'\	4a'\	4aa'\	4aa'\	4aa'\	.	.
4A\	4A/	(16dd\LL	(16ff#\LL	4AA/	4r	4r	4r	4r	4r	4r	4r	4r	4r	4r	(16ff#\LL	(16ff#\LL
.	.	16cc#\	16ee\	.	.	.	.	.	.	.	.	.	.	.	16ee\	16ee\
.	.	16b\	16dd\	.	.	.	.	.	.	.	.	.	.	.	16dd\	16dd\
.	.	16a\JJ)	16cc#\JJ)	.	.	.	.	.	.	.	.	.	.	.	16cc#\JJ)	16cc#\JJ)
=61	=61	=61	=61	=61	=61	=61	=61	=61	=61	=61	=61	=61	=61	=61	=61	=61
4d'\	4d'\	4ff#'\	4aa'\	4D\	2.r	2.r	2.r	2.r	4r	4r	2.r	2.r	2.r	2.r	4aa'\	4aa'\
4d'\	4d'\	4ff#'\	4aa'\	4D\	.	.	.	.	4r	4r	.	.	.	.	4aa'\	4aa'\
4c#'\	4c#'\	4ee'\	4aa'\	4AA/	.	.	.	.	4A\	4A\	.	.	.	.	4aa'\	4aa'\
=62	=62	=62	=62	=62	=62	=62	=62	=62	=62	=62	=62	=62	=62	=62	=62	=62
2e\	2e\	2gg\	2.aa\	4AA/	2.r	2.r	2.r	2.r	2e\	2e\	2.r	2.r	4r	4r	2.aa\	2.aa\
.	.	.	.	4r	.	.	.	.	.	.	.	.	4r	4r	.	.
(16d\LL	(16d/LL	(16ff#\LL	.	4r	.	.	.	.	(16d\LL	(16d\LL	.	.	4a/	4a/	.	.
16c#\	16c#/	16ee\	.	.	.	.	.	.	16c#\	16c#\	.	.	.	.	.	.
16B\	16B/	16dd\	.	.	.	.	.	.	16B\	16B\	.	.	.	.	.	.
16A\JJ)	16A/JJ)	16cc#\JJ)	.	.	.	.	.	.	16A\JJ)	16A\JJ)	.	.	.	.	.	.
=63	=63	=63	=63	=63	=63	=63	=63	=63	=63	=63	=63	=63	=63	=63	=63	=63
4g'\	4g'\	4b'\	4bb'\	2.r	2.r	2.r	2.r	2.r	4g\	4g\	2.r	2.r	4b\	4bb\	4bb'\	4bb'\
4g'\	4g'\	4cc#'\	4bb'\	.	.	.	.	.	4g'\	4g'\	.	.	4cc#'\	4bb'\	4bb'\	4bb'\
4f#\	4f#\	4dd\	4aa\	.	.	.	.	.	4f#\	4f#\	.	.	4dd\	4aa\	4aa\	4aa\
=64	=64	=64	=64	=64	=64	=64	=64	=64	=64	=64	=64	=64	=64	=64	=64	=64
(4e\	(2e\	(4dd\	(4gg#\	2.r	2.r	2.r	2.r	2.r	(4e\	(4e\	2.r	2.r	(4dd\	(4gg#\	(4gg#\	(4gg#\
4A\	.	4cc#\	4gg\	.	.	.	.	.	4A\	4A\	.	.	4cc#\	4gg\	4gg\	4gg\
4d\)	4f#\)	4dd\)	4ff#\)	.	.	.	.	.	4d\)	4d\)	.	.	4dd\)	4ff#\)	4ff#\)	4ff#\)
=65	=65	=65	=65	=65	=65	=65	=65	=65	=65	=65	=65	=65	=65	=65	=65	=65
2G\	2g\	2b\	8ee\L	2.r	2.r	2.r	2.r	2.r	2G\	2G\	2.r	2.r	2b\	8ee\L	8ee\L	8ee\L
.	.	.	8ff#\	.	.	.	.	.	.	.	.	.	.	8ff#\	8ff#\	8ff#\
.	.	.	8gg\	.	.	.	.	.	.	.	.	.	.	8gg\	8gg\	8gg\
.	.	.	8aa\	.	.	.	.	.	.	.	.	.	.	8aa\	8aa\	8aa\
4E\	4e\	4g/	8bb\	.	.	.	.	.	4E\	4E\	.	.	4g/	8bb\	8bb\	8bb\
.	.	.	8ccc#\J	.	.	.	.	.	.	.	.	.	.	8ccc#\J	8ccc#\J	8ccc#\J
=66	=66	=66	=66	=66	=66	=66	=66	=66	=66	=66	=66	=66	=66	=66	=66	=66
2F#\	4A/	2a/ 2d/	8ddd\L	4D\	4r	4r	4A/	4a\	2F#\	2F#\	4r	4r	4f#/	4ddd\	8ddd\L	8ddd\L
.	.	.	8ccc#\	.	.	.	.	.	.	.	.	.	.	.	8ccc#\	8ccc#\
.	2A/	.	8ddd\	4r	4r	4r	2A/	2a\	.	.	4r	4r	4r	4r	8ddd\	8ddd\
.	.	.	8aa\	.	.	.	.	.	.	.	.	.	.	.	8aa\	8aa\
4G\	.	8cc#\L	8eee\	4AA/	4a/	4ee\	.	.	4G\	4G\	4a\	4a\	8cc#\L	4ccc#\	8eee\	8eee\
.	.	8ee\J	8ccc#\J	.	.	.	.	.	.	.	.	.	8ee\J	.	8ccc#\J	8ccc#\J
=67	=67	=67	=67	=67	=67	=67	=67	=67	=67	=67	=67	=67	=67	=67	=67	=67
2F#\	4A/	8dd\L	8ddd\L	4D\	2dd\	2ff#\	4A/	4a\	2F#\	2F#\	4d/	4dd\	4ff#\	4ddd\	8ddd\L	8ddd\L
.	.	8cc#\	8ccc#\	.	.	.	.	.	.	.	.	.	.	.	8ccc#\	8ccc#\
.	2A/	8dd\	8ddd\	4r	.	.	2A/	2a\	.	.	4d/	4dd\	4r	4r	8ddd\	8ddd\
.	.	8a\	8aa\	.	.	.	.	.	.	.	.	.	.	.	8aa\	8aa\
4G\	.	8ee\	8eee\	4AA/	4a/	4ee\	.	.	4G\	4G\	4a\	4a\	4ee\	4ccc#\	8eee\	8eee\
.	.	8cc#\J	8ccc#\J	.	.	.	.	.	.	.	.	.	.	.	8ccc#\J	8ccc#\J
=68	=68	=68	=68	=68	=68	=68	=68	=68	=68	=68	=68	=68	=68	=68	=68	=68
2F#\	4A/	8dd\L	8ddd\L	4D\	2dd\	2ff#\	4A/	4a\	2F#\	2F#\	4d/	4dd\	4ff#\	4ddd\	8ddd\L	8ddd\L
.	.	8cc#\	8ccc#\	.	.	.	.	.	.	.	.	.	.	.	8ccc#\	8ccc#\
.	2A/	8dd\	8ddd\	4r	.	.	2A/	2a\	.	.	4d/	4dd\	4r	4r	8ddd\	8ddd\
.	.	8a\	8aa\	.	.	.	.	.	.	.	.	.	.	.	8aa\	8aa\
4G\	.	8ee\	8eee\	4AA/	4a/	4ee\	.	.	4G\	4G\	4a\	4a\	4ee\	4ccc#\	8eee\	8eee\
.	.	8cc#\J	8ccc#\J	.	.	.	.	.	.	.	.	.	.	.	8ccc#\J	8ccc#\J
=69	=69	=69	=69	=69	=69	=69	=69	=69	=69	=69	=69	=69	=69	=69	=69	=69
2.F#\	4A/	8dd/L	8ddd\L	4D\	4dd\	4ff#\	4A/	4a\	2.F#\	2.F#\	4d/	4dd\	4ff#\	8ddd\L	8ddd\L	8ddd\L
.	.	8cc#/	8ccc#\	.	.	.	.	.	.	.	.	.	.	8ccc#\	8ccc#\	8ccc#\
.	2A/	8b/	8bb\	4r	4r	4r	4r	4r	.	.	4d/	4dd\	4r	8bb\	8bb\	8bb\
.	.	8a/	8aa\	.	.	.	.	.	.	.	.	.	.	8aa\	8aa\	8aa\
.	.	8g/	8gg\	4r	4r	4r	4r	4r	.	.	4a\	4a\	4a/	8gg\	8gg\	8gg\
.	.	8f#/J	8ff#\J	.	.	.	.	.	.	.	.	.	.	8ff#\J	8ff#\J	8ff#\J
=70	=70	=70	=70	=70	=70	=70	=70	=70	=70	=70	=70	=70	=70	=70	=70	=70
2.G\	4B/	8e/L	8ee\L	2.r	2.r	2.r	2.r	2.r	2.G\	2.G\	4b\	4b\	4b\	8ee\L	8ee\L	8ee\L
.	.	8d#/	8dd#\	.	.	.	.	.	.	.	.	.	.	8dd#\	8dd#\	8dd#\
.	4B/	8e/	8ee\	.	.	.	.	.	.	.	4r	4r	4r	8ee\	8ee\	8ee\
.	.	8f#/	8ff#\	.	.	.	.	.	.	.	.	.	.	8ff#\	8ff#\	8ff#\
.	8b\L	8g/	8gg\	.	.	.	.	.	.	.	4r	4r	8b/L	8gg\	8gg\	8gg\
.	8g\J	8b/J	8bb\J	.	.	.	.	.	.	.	.	.	8g/J	8bb\J	8bb\J	8bb\J
=71	=71	=71	=71	=71	=71	=71	=71	=71	=71	=71	=71	=71	=71	=71	=71	=71
2A\	2f#\	4a/	8aa\L	4AA/	2dd\	2ff#\	2d\	2f#\	2A\	2A\	2f#/	2a\	2f#/	8aa\L	8aa\L	8aa\L
.	.	.	8ff#\	.	.	.	.	.	.	.	.	.	.	8ff#\	8ff#\	8ff#\
.	.	8f#/L	8dd\	2AA/	.	.	.	.	.	.	.	.	.	8dd\	8dd\	8dd\
.	.	8a/	8ff#\	.	.	.	.	.	.	.	.	.	.	8ff#\	8ff#\	8ff#\
4AA/	4g\	8g/	8ee\	.	4a/	4ee\	4A/	4e\	4AA/	4AA/	4e/	4cc#\	4g/	8ee\	8ee\	8ee\
.	.	8e/J	8cc#\J	.	.	.	.	.	.	.	.	.	.	8cc#\J	8cc#\J	8cc#\J
=72	=72	=72	=72	=72	=72	=72	=72	=72	=72	=72	=72	=72	=72	=72	=72	=72
4D\	4f#\	4d/	4dd\	4D\	4f#/	4dd\	4F#/	4d\	4D\	4D\	4f#/	4dd\	4f#/	4dd\	4dd\	4dd\
4r	4r	[2ff#z\	[2aaz\	4r	4r	4r	4r	4r	4r	4r	[2f#z/	[2az\	[2ff#z\	[2aaz\	[2aaz\	[2aaz\
4dz\	4ddz\	.	.	4r	4r	4r	4r	4r	4dz\	4dz\	.	.	.	.	.	.
=73	=73	=73	=73	=73	=73	=73	=73	=73	=73	=73	=73	=73	=73	=73	=73	=73
4G\	4g\	4ff#\]	4aa\]	2.r	2.r	2.r	2.r	2.r	4G\	4G\	4f#/]	4a\]	4ff#\]	4aa\]	4aa\]	4aa\]
4r	4r	[2ggz\	[2bbz\	.	.	.	.	.	4r	4r	[2gnz\	[2bz\	[2ggz\	[2bbz\	[2bbz\	[2bbz\
4Ez\	4ez\	.	.	.	.	.	.	.	4Ez\	4Ez\	.	.	.	.	.	.
=74	=74	=74	=74	=74	=74	=74	=74	=74	=74	=74	=74	=74	=74	=74	=74	=74
4A\	4a\	4gg\]	4bb\]	2.r	2.r	2.r	2.r	2.r	4A\	4A\	4gn\]	4b\]	4gg\]	4bb\]	4bb\]	4bb\]
4r	4r	8g/L	8cc#\L	.	.	.	.	.	4r	4r	8e/L	8cc#\L	4g/	8cc#\L	8cc#\L	8cc#\L
.	.	8f#/	8dd\	.	.	.	.	.	.	.	8f#/	8dd\	.	8dd\	8dd\	8dd\
4AA/	4A/	8e/	8ee\	.	.	.	.	.	4AA/	4AA/	8gn/	8ee\	4g/	8ee\	8ee\	8ee\
.	.	8g/J	8cc#\J	.	.	.	.	.	.	.	8e/J	8cc#\J	.	8cc#\J	8cc#\J	8cc#\J
=75	=75	=75	=75	=75	=75	=75	=75	=75	=75	=75	=75	=75	=75	=75	=75	=75
4D\	4d\	4f#/	4dd\	2.r	4r	4r	4r	4r	4D\	4D\	4f#/	4dd\	4f#/	4dd\	4dd\	4dd\
[2F#z\	[2f#z\	[2az/	4r	.	[2ff#z\	[2aaz\	[2f#z\	[2az\	[2F#z\	[2F#z\	4r	4r	[2az/	4r	4r	4r
.	.	.	4dddz\	.	.	.	.	.	.	.	4r	4r	.	4dddz\	4dddz\	4dddz\
=76	=76	=76	=76	=76	=76	=76	=76	=76	=76	=76	=76	=76	=76	=76	=76	=76
4F#\]	4f#\]	4a/]	4ee\	2.r	4ff#\]	4aa\]	4f#\]	4a\]	4F#\]	4F#\]	2.r	2.r	4a/]	4ee\	4ee\	4ee\
[2Gz\	[2gz\	[2bz\	4r	.	2ggz\	2bbz\	2gz\	2bz\	[2Gz\	[2Gz\	.	.	[2bz\	4r	4r	4r
.	.	.	4bbz\	.	.	.	.	.	.	.	.	.	.	4bbz\	4bbz\	4bbz\
=77	=77	=77	=77	=77	=77	=77	=77	=77	=77	=77	=77	=77	=77	=77	=77	=77
4G\]	4g\]	4b\]	4b\	4r	4r	4r	4r	4r	4G\]	4G\]	4r	4r	4b\]	4b\	4b\	4b\
4E\	4e\	4g/	8cc#\L	4r	4r	4r	4r	4r	4E\	4E\	4r	4r	4g/	8cc#\L	8cc#\L	8cc#\L
.	.	.	8dd\	.	.	.	.	.	.	.	.	.	.	8dd\	8dd\	8dd\
4AA/	8c#\L	4g/	8ee\	4AA/	4a/	4ee\	4A/	4e\	4AA/	4AA/	(4e/	(4cc#\	4g/	8ee\	8ee\	8ee\
.	8e\J	.	8cc#\J	.	.	.	.	.	.	.	.	.	.	8cc#\J	8cc#\J	8cc#\J
=78	=78	=78	=78	=78	=78	=78	=78	=78	=78	=78	=78	=78	=78	=78	=78	=78
4D\	4d\	4f#/	(8dd\L	4D\	4dd\	4ff#\	4d\	4f#\	4D\	4D\	4f#/)	4dd\)	4f#/	(8dd\L	4dd\	4dd\
.	.	.	8cc#\	.	.	.	.	.	.	.	.	.	.	8cc#\	.	.
4r	4r	4r	8dd\)	4r	4r	4r	4r	4r	4r	4r	4r	4r	4r	8dd\)	4r	4r
.	.	.	8a'\	.	.	.	.	.	.	.	.	.	.	8a'\	.	.
4AA/	8c#\L	4g/ 4A/	(8ee\	4AA/	4a/	4ee\	4A/	4e\	4AA/	4AA/	(4e/	(4cc#\	(4g/	(8ee\	4ccc#\	4ccc#\
.	8e\J	.	8cc#\J)	.	.	.	.	.	.	.	.	.	.	8cc#\J)	.	.
=79	=79	=79	=79	=79	=79	=79	=79	=79	=79	=79	=79	=79	=79	=79	=79	=79
4D\	4d\	4f#/ 4A/	(8dd\L	4D\	4dd\	4ff#\	4d\	4f#\	4D\	4D\	4f#/)	4dd\)	4f#/)	(8dd\L	4ddd\	4ddd\
.	.	.	8cc#\	.	.	.	.	.	.	.	.	.	.	8cc#\	.	.
4r	4r	4r	8dd\)	4r	4r	4r	4r	4r	4r	4r	4r	4r	4r	8dd\)	4r	4r
.	.	.	8a'\	.	.	.	.	.	.	.	.	.	.	8a'\	.	.
4AA/	8c#\L	4g/ 4A/	(8ee\	4AA/	4a/	4ee\	4A/	4e\	4AA/	4AA/	(4e/	(4cc#\	(4g/	(8ee\	4ccc#\	4ccc#\
.	8e\J	.	8cc#\J)	.	.	.	.	.	.	.	.	.	.	8cc#\J)	.	.
=80	=80	=80	=80	=80	=80	=80	=80	=80	=80	=80	=80	=80	=80	=80	=80	=80
4D\	4d\	4f#/ 4A/	4dd\	4D\	4f#/	4dd\	4d\	4f#\	4D\	4D\	4f#/)	4dd\)	4f#/)	4dd\	4ddd\	4ddd\
4r	4r	4r	4r	4r	4r	4r	4r	4r	4r	4r	4r	4r	4r	4r	4r	4r
=:|!@	=:|!@	=:|!@	=:|!@	=:|!@	=:|!@	=:|!@	=:|!@	=:|!@	=:|!@	=:|!@	=:|!@	=:|!@	=:|!@	=:|!@	=:|!@	=:|!@
*>C	*>C	*>C	*>C	*	*>C	*>C	*>C	*>C	*>C	*>C	*>C	*>C	*>C	*>C	*>C	*>C
!! Trio
4D\	4d\	4A/	4f#/	4r	4r	4r	4r	4r	4r	4r	4r	4r	4r	4r	4r	4r
=81	=81	=81	=81	=81	=81	=81	=81	=81	=81	=81	=81	=81	=81	=81	=81	=81
2D\	2d\	2A/	2f#/	2.r	2.r	2.r	2.r	2.r	2.r	2.r	2.r	2.r	2.r	2.r	2.r	2.r
4D\	4d\	4A/	4f#/	.	.	.	.	.	.	.	.	.	.	.	.	.
=82	=82	=82	=82	=82	=82	=82	=82	=82	=82	=82	=82	=82	=82	=82	=82	=82
2D\	2d\	2A/	2f#/	2.r	2.r	2.r	2.r	2.r	2.r	2.r	2.r	2.r	2.r	2.r	2.r	2.r
4D\	4d\	4A/	4f#/	.	.	.	.	.	.	.	.	.	.	.	.	.
=83	=83	=83	=83	=83	=83	=83	=83	=83	=83	=83	=83	=83	=83	=83	=83	=83
2D\	2d\	2A/	2f#/	2.r	2.r	2.r	2.r	2.r	2.r	2.r	2.r	2.r	2.r	2.r	2.r	2.r
4D\	4d\	4A/	4f#/	.	.	.	.	.	.	.	.	.	.	.	.	.
=84	=84	=84	=84	=84	=84	=84	=84	=84	=84	=84	=84	=84	=84	=84	=84	=84
2D\	2d\	2A/	2f#/	2.r	2.r	2.r	2.r	2.r	2.r	2.r	2.r	2.r	2.r	2.r	2.r	4r
.	.	.	.	.	.	.	.	.	.	.	.	.	.	.	.	4r
4D\	4d\	4A/	4f#/	.	.	.	.	.	.	.	.	.	.	.	.	8dd\L
.	.	.	.	.	.	.	.	.	.	.	.	.	.	.	.	8ee\J
=85	=85	=85	=85	=85	=85	=85	=85	=85	=85	=85	=85	=85	=85	=85	=85	=85
2D\	2d\	2A/	2f#/	2.r	2.r	2.r	2.r	2.r	2.r	2.r	2.r	2.r	2.r	2.r	2.r	8ff#\L
.	.	.	.	.	.	.	.	.	.	.	.	.	.	.	.	8gg\
.	.	.	.	.	.	.	.	.	.	.	.	.	.	.	.	8aa\
.	.	.	.	.	.	.	.	.	.	.	.	.	.	.	.	8bb\
4D\	4d\	4A/	4f#/	.	.	.	.	.	.	.	.	.	.	.	.	8ccc#\
.	.	.	.	.	.	.	.	.	.	.	.	.	.	.	.	8ddd\J
=86	=86	=86	=86	=86	=86	=86	=86	=86	=86	=86	=86	=86	=86	=86	=86	=86
2D\	2e\	2c#/	2g/	2.r	2.r	2.r	2.r	2.r	2.r	2.r	2.r	2.r	2.r	2.r	2.r	4eee'\
.	.	.	.	.	.	.	.	.	.	.	.	.	.	.	.	4eee'\
4D\	4e\	4c#/	4g/	.	.	.	.	.	.	.	.	.	.	.	.	4eee'\
=87	=87	=87	=87	=87	=87	=87	=87	=87	=87	=87	=87	=87	=87	=87	=87	=87
2D\	2e\	2c#/	2g/	2.r	2.r	2.r	2.r	2.r	2.r	2.r	2.r	2.r	2.r	2.r	2.r	4eee'\
.	.	.	.	.	.	.	.	.	.	.	.	.	.	.	.	(8ddd\L
.	.	.	.	.	.	.	.	.	.	.	.	.	.	.	.	8ccc#\)
4D\	4e\	4c#/	4g/	.	.	.	.	.	.	.	.	.	.	.	.	(8bb\
.	.	.	.	.	.	.	.	.	.	.	.	.	.	.	.	8aa\J)
=88	=88	=88	=88	=88	=88	=88	=88	=88	=88	=88	=88	=88	=88	=88	=88	=88
2D\	2A/	2d/	2f#/	2.r	2.r	2.r	2.r	2.r	2.r	2.r	2.r	2.r	2.r	2.r	2.r	4ddd\
.	.	.	.	.	.	.	.	.	.	.	.	.	.	.	.	8ccc#\L
.	.	.	.	.	.	.	.	.	.	.	.	.	.	.	.	8bb\
4D\	4d\	4A/	4f#/	.	.	.	.	.	.	.	.	.	.	.	.	8aa\
.	.	.	.	.	.	.	.	.	.	.	.	.	.	.	.	8gg\J
=89	=89	=89	=89	=89	=89	=89	=89	=89	=89	=89	=89	=89	=89	=89	=89	=89
2D\	2d\	2A/	2f#/	2.r	2.r	2.r	2.r	2.r	2.r	2.r	2.r	2.r	2.r	2.r	2.r	8ff#\L
.	.	.	.	.	.	.	.	.	.	.	.	.	.	.	.	8bb\
.	.	.	.	.	.	.	.	.	.	.	.	.	.	.	.	8aa\
.	.	.	.	.	.	.	.	.	.	.	.	.	.	.	.	8gg\
4D\	4d\	4A/	4f#/	.	.	.	.	.	.	.	.	.	.	.	.	8ff#\
.	.	.	.	.	.	.	.	.	.	.	.	.	.	.	.	8ee\J
=90	=90	=90	=90	=90	=90	=90	=90	=90	=90	=90	=90	=90	=90	=90	=90	=90
2D\	2d\	2A/	2f#/	2.r	2.r	2.r	2.r	2.r	2.r	2.r	2.r	2.r	2.r	2.r	2.r	8dd\L
.	.	.	.	.	.	.	.	.	.	.	.	.	.	.	.	8ff#\
.	.	.	.	.	.	.	.	.	.	.	.	.	.	.	.	8ee\
.	.	.	.	.	.	.	.	.	.	.	.	.	.	.	.	8dd\
4D\	4d\	4A/	4f#/	.	.	.	.	.	.	.	.	.	.	.	.	8cc#\
.	.	.	.	.	.	.	.	.	.	.	.	.	.	.	.	8b\J
=91	=91	=91	=91	=91	=91	=91	=91	=91	=91	=91	=91	=91	=91	=91	=91	=91
2D\	2d\	2f#/	2a/	2.r	2.r	2.r	2.r	2.r	2.r	2.r	2.r	2.r	2.r	2.r	2.r	2a/
4D\	4d\	4f#/	4a/	.	.	.	.	.	.	.	.	.	.	.	.	4a/
=92	=92	=92	=92	=92	=92	=92	=92	=92	=92	=92	=92	=92	=92	=92	=92	=92
2D\	2d\	2f#/	2a/	2.r	2.r	2.r	2.r	2.r	2.r	2.r	2.r	2.r	2.r	2.r	2.r	2a/
4D\	4d\	4f#/	4a/	.	.	.	.	.	.	.	.	.	.	.	.	4a/
=93	=93	=93	=93	=93	=93	=93	=93	=93	=93	=93	=93	=93	=93	=93	=93	=93
2D#\	2f#\	2c/	2a/	4AA/	2a/	2aa\	2f#\	2a\	2f#\	2f#\	2.a\	2.ff#\	2aa\	2cc\	2a/	2a/
.	.	.	.	4r	.	.	.	.	.	.	.	.	.	.	.	.
4D#\	4f#\	4c/	4a/	4r	4a/	4aa\	4f#\	4a\	4f#\	4f#\	.	.	4aa\	4cc\	4a/	4a/
=94	=94	=94	=94	=94	=94	=94	=94	=94	=94	=94	=94	=94	=94	=94	=94	=94
2E\	2e\	4c#/	4a/	2.r	2ee\	2ee\	2e\	2e\	2e\	2e\	4a\	4cc#\	4aa\	4cc#\	4a/	4a/
.	.	4d/	4b\	.	.	.	.	.	.	.	4b\	4dd\	4bb\	4dd\	4b\	4b\
4E\	4e\	4B/	4g#/	.	4ee\	4ee\	4e\	4e\	4e\	4e\	4g#\	4b\	4gg#\	4b\	4g#/	4g#/
=95	=95	=95	=95	=95	=95	=95	=95	=95	=95	=95	=95	=95	=95	=95	=95	=95
2AA/	2A/	2c#/	8a\L	4AA/	2ee\	2aa\	2A/	2e\	2A\	2A\	8a/L	8a\L	8aa\L	4cc#\	8a\L	8a\L
.	.	.	8cc#\	.	.	.	.	.	.	.	8c#/	8cc#\	8cc#\	.	8cc#\	8cc#\
.	.	.	8dd\	4r	.	.	.	.	.	.	8d/	8dd\	8dd\	8dd\L	8dd\	8dd\
.	.	.	8ee\	.	.	.	.	.	.	.	8e/	8ee\	8ee\	8ee\	8ee\	8ee\
4AA/	4A/	4c#/	8ff#\	4AA/	4ee\	4aa\	4A/	4e\	4A\	4A\	8f#/	8ff#\	8ff#\	8ff#\	8ff#\	8ff#\
.	.	.	8gg#\J	.	.	.	.	.	.	.	8g#/J	8gg#\J	8gg#\J	8gg#\J	8gg#\J	8gg#\J
=96	=96	=96	=96	=96	=96	=96	=96	=96	=96	=96	=96	=96	=96	=96	=96	=96
4AA/	4A/	4c#/	4aa\	4AA/	4ee\	4aa\	4A/	4e\	4A\	4A\	4a\	4aa\	4aa\	4aa\	4aa\	4aa\
4r	4r	4r	4r	4r	4r	4r	4r	4r	4r	4r	4r	4r	4r	4r	4r	4r
4D\	4d\	4A/	4f#/	4r	4r	4r	4r	4r	4r	4r	4r	4r	4r	4r	4r	4r
=97	=97	=97	=97	=97	=97	=97	=97	=97	=97	=97	=97	=97	=97	=97	=97	=97
2D\	2d\	2A/	2f#/	2.r	2.r	2.r	2.r	2.r	2.r	2.r	2.r	2.r	2.r	2.r	2.r	2.r
4D\	4d\	4A/	4f#/	.	.	.	.	.	.	.	.	.	.	.	.	.
=98	=98	=98	=98	=98	=98	=98	=98	=98	=98	=98	=98	=98	=98	=98	=98	=98
2D\	2d\	2A/	2f#/	2.r	2.r	2.r	2.r	2.r	2.r	2.r	2.r	2.r	2.r	2.r	2.r	2.r
4D\	4d\	4A/	4f#/	.	.	.	.	.	.	.	.	.	.	.	.	.
=99	=99	=99	=99	=99	=99	=99	=99	=99	=99	=99	=99	=99	=99	=99	=99	=99
2D\	2d\	2A/	2f#/	2.r	2.r	2.r	2.r	2.r	2.r	2.r	2.r	2.r	2.r	2.r	2.r	2.r
4D\	4d\	4A/	4f#/	.	.	.	.	.	.	.	.	.	.	.	.	.
=100	=100	=100	=100	=100	=100	=100	=100	=100	=100	=100	=100	=100	=100	=100	=100	=100
2D\	2d\	2A/	2f#/	2.r	2.r	2.r	2.r	2.r	2.r	2.r	2.r	2.r	2.r	2.r	2.r	4r
.	.	.	.	.	.	.	.	.	.	.	.	.	.	.	.	4r
4D\	4d\	4A/	4f#/	.	.	.	.	.	.	.	.	.	.	.	.	8dd\L
.	.	.	.	.	.	.	.	.	.	.	.	.	.	.	.	8ee\J
=101	=101	=101	=101	=101	=101	=101	=101	=101	=101	=101	=101	=101	=101	=101	=101	=101
2D\	2d\	2A/	2f#/	2.r	2.r	2.r	2.r	2.r	2.r	2.r	2.r	2.r	2.r	2.r	2.r	8ff#\L
.	.	.	.	.	.	.	.	.	.	.	.	.	.	.	.	8gg\
.	.	.	.	.	.	.	.	.	.	.	.	.	.	.	.	8aa\
.	.	.	.	.	.	.	.	.	.	.	.	.	.	.	.	8bb\
4D\	4d\	4A/	4f#/	.	.	.	.	.	.	.	.	.	.	.	.	8ccc#\
.	.	.	.	.	.	.	.	.	.	.	.	.	.	.	.	8ddd\J
=102	=102	=102	=102	=102	=102	=102	=102	=102	=102	=102	=102	=102	=102	=102	=102	=102
2D\	2e\	2c#/	2g/	2.r	2.r	2.r	2.r	2.r	2.r	2.r	2.r	2.r	2.r	2.r	2.r	4eee'\
.	.	.	.	.	.	.	.	.	.	.	.	.	.	.	.	4eee'\
4D\	4e\	4c#/	4g/	.	.	.	.	.	.	.	.	.	.	.	.	4eee'\
=103	=103	=103	=103	=103	=103	=103	=103	=103	=103	=103	=103	=103	=103	=103	=103	=103
2D\	2e\	2c#/	2g/	2.r	2.r	2.r	2.r	2.r	2.r	2.r	2.r	2.r	2.r	2.r	2.r	4eee\
.	.	.	.	.	.	.	.	.	.	.	.	.	.	.	.	(8ddd\L
.	.	.	.	.	.	.	.	.	.	.	.	.	.	.	.	8ccc#\)
4D\	4e\	4c#/	4g/	.	.	.	.	.	.	.	.	.	.	.	.	(8bb\
.	.	.	.	.	.	.	.	.	.	.	.	.	.	.	.	8aa\J)
=104	=104	=104	=104	=104	=104	=104	=104	=104	=104	=104	=104	=104	=104	=104	=104	=104
2D\	2A/	2d/	2f#/	2.r	2.r	2.r	2.r	2.r	2.r	2.r	2.r	2.r	2.r	2.r	2.r	4ddd\
.	.	.	.	.	.	.	.	.	.	.	.	.	.	.	.	8ccc#\L
.	.	.	.	.	.	.	.	.	.	.	.	.	.	.	.	8bb\
4D\	4d\	4A/	4f#/	.	.	.	.	.	.	.	.	.	.	.	.	8aa\
.	.	.	.	.	.	.	.	.	.	.	.	.	.	.	.	8gg\J
=105	=105	=105	=105	=105	=105	=105	=105	=105	=105	=105	=105	=105	=105	=105	=105	=105
2D\	2d\	2A/	2f#/	2.r	2.r	2.r	2.r	2.r	2.r	2.r	2.r	2.r	2.r	2.r	2.r	8ff#\L
.	.	.	.	.	.	.	.	.	.	.	.	.	.	.	.	8bb\
.	.	.	.	.	.	.	.	.	.	.	.	.	.	.	.	8aa\
.	.	.	.	.	.	.	.	.	.	.	.	.	.	.	.	8gg\
4D\	4d\	4A/	4f#/	.	.	.	.	.	.	.	.	.	.	.	.	8ff#\
.	.	.	.	.	.	.	.	.	.	.	.	.	.	.	.	8ee\J
=106	=106	=106	=106	=106	=106	=106	=106	=106	=106	=106	=106	=106	=106	=106	=106	=106
2D\	2d\	2A/	2f#/	2.r	2.r	2.r	2.r	2.r	2.r	2.r	2.r	2.r	2.r	2.r	2.r	8dd\L
.	.	.	.	.	.	.	.	.	.	.	.	.	.	.	.	8ff#\
.	.	.	.	.	.	.	.	.	.	.	.	.	.	.	.	8ee\
.	.	.	.	.	.	.	.	.	.	.	.	.	.	.	.	8dd\
4D\	4d\	4A/	4f#/	.	.	.	.	.	.	.	.	.	.	.	.	8cc#\
.	.	.	.	.	.	.	.	.	.	.	.	.	.	.	.	8b\J
=107	=107	=107	=107	=107	=107	=107	=107	=107	=107	=107	=107	=107	=107	=107	=107	=107
2D\	2d\	2f#/	2a/	2.r	2.r	2.r	2.r	2.r	2.r	2.r	2.r	2.r	2.r	2.r	2.r	2a/
4D\	4d\	4f#/	4a/	.	.	.	.	.	.	.	.	.	.	.	.	4a/
=108	=108	=108	=108	=108	=108	=108	=108	=108	=108	=108	=108	=108	=108	=108	=108	=108
2D\	2d\	2f#/	2a/	2.r	2.r	2.r	2.r	2.r	2.r	2.r	2.r	2.r	2.r	2.r	2.r	2a/
4D\	4d\	4f#/	4a/	.	.	.	.	.	.	.	.	.	.	.	.	4a/
=109	=109	=109	=109	=109	=109	=109	=109	=109	=109	=109	=109	=109	=109	=109	=109	=109
2D#\	2f#\	2c/	2a/	4AA/	2ff#\	2aa\	2f#\	2a\	2f#\	2f#\	2.a\	2.ff#\	2aa\	2cc\	2a/	2a/
.	.	.	.	4r	.	.	.	.	.	.	.	.	.	.	.	.
4D#\	4f#\	4c/	4a/	4AA/	4ff#\	4aa\	4f#\	4a\	4f#\	4f#\	.	.	4aa\	4cc\	4a/	4a/
=110	=110	=110	=110	=110	=110	=110	=110	=110	=110	=110	=110	=110	=110	=110	=110	=110
2E\	2e\	4c#/	(4a/	2.r	2ee\	2ee\	2e\	2e\	2e\	2e\	4a\	4cc#\	4aa\	4cc#\	4a/	4a/
.	.	4d/	4b\)	.	.	.	.	.	.	.	4b\	4dd\	4bb\	4dd\	4b\	4b\
4E\	4e\	4B/	4g#/	.	4ee\	4ee\	4e\	4e\	4e\	4e\	4g#\	4b\	4gg#\	4b\	4g#/	4g#/
=111	=111	=111	=111	=111	=111	=111	=111	=111	=111	=111	=111	=111	=111	=111	=111	=111
2AA/	2A/	2c#/	8a\L	4AA/	2a/	2ee\	2A/	2e\	2A\	2A\	8a/L	8a\L	8aa\L	4cc#\	8a\L	8a\L
.	.	.	8cc#\	.	.	.	.	.	.	.	8c#/	8cc#\	8cc#\	.	8cc#\	8cc#\
.	.	.	8dd\	4r	.	.	.	.	.	.	8d/	8dd\	8dd\	8dd\L	8dd\	8dd\
.	.	.	8ee\	.	.	.	.	.	.	.	8e/	8ee\	8ee\	8ee\	8ee\	8ee\
4AA/	4A/	4c#/	8ff#\	4AA/	4a/	4ee\	4A/	4e\	4A\	4A\	8f#/	8ff#\	8ff#\	8ff#\	8ff#\	8ff#\
.	.	.	8gg#\J	.	.	.	.	.	.	.	8g#/J	8gg#\J	8gg#\J	8gg#\J	8gg#\J	8gg#\J
=112	=112	=112	=112	=112	=112	=112	=112	=112	=112	=112	=112	=112	=112	=112	=112	=112
4AA/	4A/	4c#/	4aa\	4AA/	4a/	4ee\	4A/	4e\	4A\	4A\	4a\	4aa\	4aa\	4aa\	4aa\	4aa\
4r	4r	4r	4r	4r	4r	4r	4r	4r	4r	4r	4r	4r	4r	4r	4r	4r
=!|:@	=!|:@	=!|:@	=!|:@	=!|:@	=!|:@	=!|:@	=!|:@	=!|:@	=!|:@	=!|:@	=!|:@	=!|:@	=!|:@	=!|:@	=!|:@	=!|:@
*>D	*>D	*>D	*>D	*>D	*>D	*>D	*>D	*>D	*>D	*>D	*>D	*>D	*>D	*>D	*>D	*>D
4r	4A#/	4c#/	4f#/	4r	4r	4r	4r	4r	4r	4r	4r	4r	4r	4r	4r	4r
=113	=113	=113	=113	=113	=113	=113	=113	=113	=113	=113	=113	=113	=113	=113	=113	=113
2.r	2A#/	2c#/	2f#/	2.r	2.r	2.r	2.r	2.r	2.r	2.r	2.r	2.r	2.r	2.r	2.r	2.r
.	4A#/	4c#/	4f#/	.	.	.	.	.	.	.	.	.	.	.	.	.
=114	=114	=114	=114	=114	=114	=114	=114	=114	=114	=114	=114	=114	=114	=114	=114	=114
2.r	2A#/	2c#/	2f#/	2.r	2.r	2.r	2.r	2.r	2.r	2.r	2.r	2.r	2.r	2.r	2.r	4r
.	.	.	.	.	.	.	.	.	.	.	.	.	.	.	.	4r
.	4A#/	4c#/	4f#/	.	.	.	.	.	.	.	.	.	.	.	.	(8eee\L
.	.	.	.	.	.	.	.	.	.	.	.	.	.	.	.	8ddd\J)
=115	=115	=115	=115	=115	=115	=115	=115	=115	=115	=115	=115	=115	=115	=115	=115	=115
2.r	2A#/	2c#/	2f#/	2.r	2.r	2.r	2.r	2.r	2.r	4r	2.r	2.r	2.r	2.r	2.r	(8ccc#\L
.	.	.	.	.	.	.	.	.	.	.	.	.	.	.	.	8bb\J)
.	.	.	.	.	.	.	.	.	.	4r	.	.	.	.	.	4aa#'\
.	4A#/	4c#/	4f#/	.	.	.	.	.	.	(8F#\L	.	.	.	.	.	4r
.	.	.	.	.	.	.	.	.	.	8E\J)	.	.	.	.	.	.
=116	=116	=116	=116	=116	=116	=116	=116	=116	=116	=116	=116	=116	=116	=116	=116	=116
2.r	2B/	2d/	2g/	2.r	2.r	2.r	2.r	2.r	2.r	(8D/L	2.r	2.r	2.r	2.r	2.r	4r
.	.	.	.	.	.	.	.	.	.	8C#/J)	.	.	.	.	.	.
.	.	.	.	.	.	.	.	.	.	4BB/	.	.	.	.	.	4r
.	4B/	4d/	4g/	.	.	.	.	.	.	4r	.	.	.	.	.	(8ddd\L
.	.	.	.	.	.	.	.	.	.	.	.	.	.	.	.	8ccc#\J)
=117	=117	=117	=117	=117	=117	=117	=117	=117	=117	=117	=117	=117	=117	=117	=117	=117
2.r	2B/	2d/	2g/	2.r	2.r	2.r	2.r	2.r	2.r	4r	2.r	2.r	2.r	2.r	2.r	(8bb\L
.	.	.	.	.	.	.	.	.	.	.	.	.	.	.	.	8aa\J)
.	.	.	.	.	.	.	.	.	.	4r	.	.	.	.	.	4gg\
.	4B/	4d/	4g/	.	.	.	.	.	.	(8G\L	.	.	.	.	.	4r
.	.	.	.	.	.	.	.	.	.	8F#\J)	.	.	.	.	.	.
=118	=118	=118	=118	=118	=118	=118	=118	=118	=118	=118	=118	=118	=118	=118	=118	=118
2.r	2c#\	2e/	2a/	2.r	2.r	2.r	2.r	2.r	2.r	(8E\L	2.r	2.r	2.r	2.r	2.r	4r
.	.	.	.	.	.	.	.	.	.	8D\J)	.	.	.	.	.	.
.	.	.	.	.	.	.	.	.	.	4C#/	.	.	.	.	.	4r
.	4c#\	4e/	4a/	.	.	.	.	.	.	4r	.	.	.	.	.	(8eee\L
.	.	.	.	.	.	.	.	.	.	.	.	.	.	.	.	8ddd\J)
=119	=119	=119	=119	=119	=119	=119	=119	=119	=119	=119	=119	=119	=119	=119	=119	=119
2.r	2c#\	2e/	2a/	2.r	2.r	2.r	2.r	2.r	2.r	4r	2.r	2.r	2.r	2.r	2.r	(8ccc#\L
.	.	.	.	.	.	.	.	.	.	.	.	.	.	.	.	8bb\J)
.	.	.	.	.	.	.	.	.	.	4r	.	.	.	.	.	4aa\
.	4c#\	4e/	4a/	.	.	.	.	.	.	(8A\L	.	.	.	.	.	4r
.	.	.	.	.	.	.	.	.	.	8G\J)	.	.	.	.	.	.
=120	=120	=120	=120	=120	=120	=120	=120	=120	=120	=120	=120	=120	=120	=120	=120	=120
2.r	2d\	2f#/	2a/	2.r	2.r	2.r	2.r	2.r	2.r	(8F#\L	2.r	2.r	2.r	2.r	2.r	4r
.	.	.	.	.	.	.	.	.	.	8E\J)	.	.	.	.	.	.
.	.	.	.	.	.	.	.	.	.	4D\	.	.	.	.	.	4r
.	4c#\	4e/	4a/	.	.	.	.	.	.	4r	.	.	.	.	.	(8aa\L
.	.	.	.	.	.	.	.	.	.	.	.	.	.	.	.	8gg\J)
=121	=121	=121	=121	=121	=121	=121	=121	=121	=121	=121	=121	=121	=121	=121	=121	=121
4r	2d\	2f#/	2a/	2.r	2.r	2.r	2.r	2.r	2.r	2.r	2.r	2.r	2.r	2.r	2.r	(8ff#\L
.	.	.	.	.	.	.	.	.	.	.	.	.	.	.	.	8ee\J)
4r	.	.	.	.	.	.	.	.	.	.	.	.	.	.	.	4dd\
4C#/	4c#\	4e/	(8a/L	.	.	.	.	.	.	.	.	.	.	.	.	4r
.	.	.	8g/J)	.	.	.	.	.	.	.	.	.	.	.	.	.
=122	=122	=122	=122	=122	=122	=122	=122	=122	=122	=122	=122	=122	=122	=122	=122	=122
2D\	2d\	2f#/	(8f#/L	2.r	2.r	2.r	2.r	2.r	2.r	2.r	2.r	2.r	2.r	2.r	2.r	2.r
.	.	.	8e/J	.	.	.	.	.	.	.	.	.	.	.	.	.
.	.	.	4d/)	.	.	.	.	.	.	.	.	.	.	.	.	.
4r	(8a\L	(8aa\L	(8aa\L	.	.	.	.	.	.	.	.	.	.	.	.	.
.	8g\J)	8gg\J)	8gg\J)	.	.	.	.	.	.	.	.	.	.	.	.	.
=123	=123	=123	=123	=123	=123	=123	=123	=123	=123	=123	=123	=123	=123	=123	=123	=123
2.r	(8f#\L	(8ff#\L	(8ff#\L	2.r	2.r	2.r	2.r	2.r	4r	4r	2.r	2.r	2.r	2.r	2.r	2.r
.	8e\	8ee\	8ee\	.	.	.	.	.	.	.	.	.	.	.	.	.
.	8d\)	8dd\)	8dd\)	.	.	.	.	.	8r	8r	.	.	.	.	.	.
.	(8f#\	(8ff#\	(8ff#\	.	.	.	.	.	(8f#\L	(8f#\L	.	.	.	.	.	.
.	8e\	8ee\	8ee\	.	.	.	.	.	8e\	8e\	.	.	.	.	.	.
.	8d\J)	8dd\J)	8dd\J)	.	.	.	.	.	8d\J)	8d\J)	.	.	.	.	.	.
=124	=124	=124	=124	=124	=124	=124	=124	=124	=124	=124	=124	=124	=124	=124	=124	=124
4r	(8c#/L	(8cc#\L	(8cc#\L	2.r	2.r	2.r	2.r	2.r	(8c#\L	(8c#\L	2.r	2.r	2.r	2.r	4r	4r
.	8B/)	8b\)	8b\)	.	.	.	.	.	8B\)	8B\)	.	.	.	.	.	.
(8d\L	(8d/	(8dd\	(8dd\	.	.	.	.	.	(8d\	(8d\	.	.	.	.	(8ddd\L	(8ddd\L
8c#\	8c#/	8cc#\	8cc#\	.	.	.	.	.	8c#\	8c#\	.	.	.	.	8ccc#\	8ccc#\
8B\	8B/	8b\	8b\	.	.	.	.	.	8B\	8B\	.	.	.	.	8bb\	8bb\
8A\J	8A/J	8a\J	8a\J	.	.	.	.	.	8A\J	8A\J	.	.	.	.	8aa\J	8aa\J
=125	=125	=125	=125	=125	=125	=125	=125	=125	=125	=125	=125	=125	=125	=125	=125	=125
8G\L)	8G\L)	8g/L)	8g/L)	2.r	2.r	2.r	2.r	2.r	8G\L)	8G\L)	2.r	2.r	2.r	2.r	8gg\L)	8gg\L)
(8B\	(8b\	(8b/	(8b/	.	.	.	.	.	(8B\	(8B\	.	.	.	.	(8bb\	(8bb\
8A\	8a\	8a/	8a/	.	.	.	.	.	8A\	8A\	.	.	.	.	8aa\	8aa\
8G\	8g\	8g/	8g/	.	.	.	.	.	8G\	8G\	.	.	.	.	8gg\	8gg\
8F#\	8f#\	8f#/	8f#/	.	.	.	.	.	8F#\	8F#\	.	.	.	.	8ff#\	8ff#\
8E\J)	8e\J)	8e/J)	8e/J)	.	.	.	.	.	8E\J)	8E\J)	.	.	.	.	8ee\J)	8ee\J)
=126	=126	=126	=126	=126	=126	=126	=126	=126	=126	=126	=126	=126	=126	=126	=126	=126
(8G\L	(8g\L	(8g/L	(8g/L	2.r	2.r	2.r	2.r	2.r	(8G\L	(8G\L	2.r	2.r	2.r	2.r	(8gg\L	(8gg\L
8F#\	8f#\	8f#/	8f#/	.	.	.	.	.	8F#\	8F#\	.	.	.	.	8ff#\	8ff#\
8E\	8e\	8e/	8e/	.	.	.	.	.	8E\	8E\	.	.	.	.	8ee\	8ee\
8D\	8d\	8d/	8d/	.	.	.	.	.	8D\	8D\	.	.	.	.	8dd\	8dd\
8C#\	8c#\	8c#/	8c#/	.	.	.	.	.	8C#\	8C#\	.	.	.	.	8cc#\	8cc#\
8BB\J)	8B\J)	8B/J)	8B/J)	.	.	.	.	.	8BB\J)	8BB\J)	.	.	.	.	8b\J)	8b\J)
=127	=127	=127	=127	=127	=127	=127	=127	=127	=127	=127	=127	=127	=127	=127	=127	=127
4AA/	4A/	4A/	8A'/L	2.r	2.r	2.r	2.r	2.r	4AA/	4AA/	2.r	2.r	2.r	2.r	4a/	4a/
.	.	.	(8g/	.	.	.	.	.	.	.	.	.	.	.	.	.
4r	4r	4r	8f#/	.	.	.	.	.	4r	4r	.	.	.	.	4r	4r
.	.	.	8e/)	.	.	.	.	.	.	.	.	.	.	.	.	.
4r	4r	4r	(8b/	.	.	.	.	.	4r	4r	.	.	.	.	4r	4r
.	.	.	8a/J	.	.	.	.	.	.	.	.	.	.	.	.	.
=128	=128	=128	=128	=128	=128	=128	=128	=128	=128	=128	=128	=128	=128	=128	=128	=128
4AA/	4g\	4c#/	8g\L)	2.r	2.r	2.r	2.r	2.r	2.r	2.r	2.r	2.r	2.r	2.r	2.r	2.r
.	.	.	(8ee\	.	.	.	.	.	.	.	.	.	.	.	.	.
4r	4r	4r	8dd\	.	.	.	.	.	.	.	.	.	.	.	.	.
.	.	.	8cc#\)	.	.	.	.	.	.	.	.	.	.	.	.	.
4r	4r	4r	(8gg\	.	.	.	.	.	.	.	.	.	.	.	.	.
.	.	.	8ff#\J)	.	.	.	.	.	.	.	.	.	.	.	.	.
=129	=129	=129	=129	=129	=129	=129	=129	=129	=129	=129	=129	=129	=129	=129	=129	=129
4AA/	4g\	4c#/	(8ee\L	2.r	2.r	2.r	2.r	2.r	2.r	2.r	2.r	2.r	2.r	2.r	2.r	2.r
.	.	.	8gg\)	.	.	.	.	.	.	.	.	.	.	.	.	.
4r	4r	4r	(8bb\	.	.	.	.	.	.	.	.	.	.	.	.	.
.	.	.	8aa\	.	.	.	.	.	.	.	.	.	.	.	.	.
4r	4r	4r	8gg\	.	.	.	.	.	.	.	.	.	.	.	.	.
.	.	.	8ff#\J)	.	.	.	.	.	.	.	.	.	.	.	.	.
=130	=130	=130	=130	=130	=130	=130	=130	=130	=130	=130	=130	=130	=130	=130	=130	=130
4AA/	4g\	4c#/	(8ee\L	2.r	2.r	2.r	2.r	2.r	2.r	2.r	2.r	2.r	2.r	2.r	2.r	2.r
.	.	.	8gg\)	.	.	.	.	.	.	.	.	.	.	.	.	.
4r	4r	4r	(8bb\	.	.	.	.	.	.	.	.	.	.	.	.	.
.	.	.	8aa\	.	.	.	.	.	.	.	.	.	.	.	.	.
4r	4r	4r	8gg\	.	.	.	.	.	.	.	.	.	.	.	.	.
.	.	.	8ff#\J)	.	.	.	.	.	.	.	.	.	.	.	.	.
=131	=131	=131	=131	=131	=131	=131	=131	=131	=131	=131	=131	=131	=131	=131	=131	=131
!!*               E   15
!!P    C17:Y65
4AA/	4g\	4c#/	(8ee\L	2.r	2.r	2.r	2.r	2.r	2.r	2.r	2.r	2.r	2.r	2.r	2.r	2.r
.	.	.	8gg\)	.	.	.	.	.	.	.	.	.	.	.	.	.
4r	4r	4r	(8bb\	.	.	.	.	.	.	.	.	.	.	.	.	.
.	.	.	8aa\	.	.	.	.	.	.	.	.	.	.	.	.	.
!!*               F   0
4r	4r	4r	8gg\	.	.	.	.	.	.	.	.	.	.	.	.	.
.	.	.	8ff#\J)	.	.	.	.	.	.	.	.	.	.	.	.	.
=132	=132	=132	=132	=132	=132	=132	=132	=132	=132	=132	=132	=132	=132	=132	=132	=132
4AA/	4g\	4c#/	(8ee\L	2.r	2.r	2.r	2.r	2.r	2.r	2.r	2.r	2.r	2.r	2.r	2.r	2.r
.	.	.	8gg\)	.	.	.	.	.	.	.	.	.	.	.	.	.
4r	4r	4r	(8bb\	.	.	.	.	.	.	.	.	.	.	.	.	.
.	.	.	8aa\	.	.	.	.	.	.	.	.	.	.	.	.	.
4r	4r	4r	8gg\	.	.	.	.	.	.	.	.	.	.	.	.	.
.	.	.	8ff#\J)	.	.	.	.	.	.	.	.	.	.	.	.	.
=133	=133	=133	=133	=133	=133	=133	=133	=133	=133	=133	=133	=133	=133	=133	=133	=133
4AA/	4g\	4c#/	(8ee\L	2.r	2.r	2.r	2.r	2.r	2.r	2.r	2.r	2.r	2.r	2.r	2.r	2.r
.	.	.	8gg\	.	.	.	.	.	.	.	.	.	.	.	.	.
4r	4r	4r	8bb\	.	.	.	.	.	.	.	.	.	.	.	.	.
.	.	.	8aa\	.	.	.	.	.	.	.	.	.	.	.	.	.
4r	4r	4r	8gg\	.	.	.	.	.	.	.	.	.	.	.	.	.
.	.	.	8ff#\J)	.	.	.	.	.	.	.	.	.	.	.	.	.
=134	=134	=134	=134	=134	=134	=134	=134	=134	=134	=134	=134	=134	=134	=134	=134	=134
2.r	2.r	2.r	(8ee\L	2.r	2.r	2.r	2.r	2.r	2.r	2.r	2.r	2.r	2.r	2.r	2.r	2.r
.	.	.	8gg\	.	.	.	.	.	.	.	.	.	.	.	.	.
.	.	.	8bb\	.	.	.	.	.	.	.	.	.	.	.	.	.
.	.	.	8aa\	.	.	.	.	.	.	.	.	.	.	.	.	.
.	.	.	8gg\	.	.	.	.	.	.	.	.	.	.	.	.	.
.	.	.	8ff#\J)	.	.	.	.	.	.	.	.	.	.	.	.	.
=135	=135	=135	=135	=135	=135	=135	=135	=135	=135	=135	=135	=135	=135	=135	=135	=135
2.r	2.r	2.r	(8ee\L	2.r	2.r	2.r	2.r	2.r	2.r	2.r	2.r	2.r	2.r	2.r	2.r	2.r
.	.	.	8gg\	.	.	.	.	.	.	.	.	.	.	.	.	.
.	.	.	8bb\	.	.	.	.	.	.	.	.	.	.	.	.	.
.	.	.	8aa\	.	.	.	.	.	.	.	.	.	.	.	.	.
.	.	.	8gg\	.	.	.	.	.	.	.	.	.	.	.	.	.
.	.	.	8ff#\J)	.	.	.	.	.	.	.	.	.	.	.	.	.
=136	=136	=136	=136	=136	=136	=136	=136	=136	=136	=136	=136	=136	=136	=136	=136	=136
2.r	4r	4r	(4ee\	2.r	2.r	2.r	2.r	2.r	2.r	2.r	2.r	2.r	2.r	2.r	2.r	2.r
.	4r	4r	4ee#\)	.	.	.	.	.	.	.	.	.	.	.	.	.
.	4d\	4a/	4ff#\	.	.	.	.	.	.	.	.	.	.	.	.	.
=137	=137	=137	=137	=137	=137	=137	=137	=137	=137	=137	=137	=137	=137	=137	=137	=137
2.r	2d\	2a/	2ff#\	2.r	2.r	2.r	2.r	2.r	2.r	2.r	2.r	2.r	2.r	2.r	2.r	2.r
.	4d\	4a/	4ff#\	.	.	.	.	.	.	.	.	.	.	.	.	.
=138	=138	=138	=138	=138	=138	=138	=138	=138	=138	=138	=138	=138	=138	=138	=138	=138
4r	2d\	2a/	2ff#\	4r	4r	4r	4r	4r	4r	4r	4r	4r	4r	4r	4r	4r
4r	.	.	.	4r	4r	4r	4r	4r	4r	4r	4r	4r	4r	4r	4r	4r
8D\L	4a\	4dd\	4ff#\	4D\	4dd\	4ff#\	4d\	4a\	8D\L	8D\L	4dd\	4ff#\	8f#/L	8f#/L	4ddd\	4ddd\
8E\J	.	.	.	.	.	.	.	.	8E\J	8E\J	.	.	8g/J	8g/J	.	.
=139	=139	=139	=139	=139	=139	=139	=139	=139	=139	=139	=139	=139	=139	=139	=139	=139
8F#\L	4a'\	4dd'\	4ff#'\	4D\	4dd\	4ff#\	4d\	4a\	8F#\L	8F#\L	4dd\	4ff#\	8a\L	8a\L	4ddd\	4ddd\
8G\	.	.	.	.	.	.	.	.	8G\	8G\	.	.	8b\	8b\	.	.
8A\	4a'\	4dd'\	4ff#'\	4D\	4dd\	4ff#\	4d\	4a\	8A\	8A\	4dd\	4ff#\	8cc#\	8cc#\	4ddd\	4ddd\
8B\	.	.	.	.	.	.	.	.	8B\	8B\	.	.	8dd\	8dd\	.	.
8c#\	4a'\	4dd'\	4ff#'\	4D\	4dd\	4ff#\	4d\	4a\	8c#\	8c#\	4dd\	4ff#\	8ee\	8ee\	4ddd\	4ddd\
8d\J	.	.	.	.	.	.	.	.	8d\J	8d\J	.	.	8ff#\J	8ff#\J	.	.
=140	=140	=140	=140	=140	=140	=140	=140	=140	=140	=140	=140	=140	=140	=140	=140	=140
2e\	2a\	2cc#\	2gg\	4AA/	4ee\	4gg\	4A/	4a\	2e\	2e\	2cc#\	2ggn\	2gg\	2gg\	2ccc#\	2ccc#\
.	.	.	.	4r	4r	4r	4r	4r	.	.	.	.	.	.	.	.
8AA/L	4A/	4cc#\	4gg\	4AA/	4a/	4ee\	4A/	4e\	8AA/L	8AA/L	4cc#\	4ggn\	8cc#\L	8cc#\L	4ccc#\	4ccc#\
8BB/J	.	.	.	.	.	.	.	.	8BB/J	8BB/J	.	.	8dd\J	8dd\J	.	.
=141	=141	=141	=141	=141	=141	=141	=141	=141	=141	=141	=141	=141	=141	=141	=141	=141
8C#\L	4A/	4cc#\	4gg\	4AA/	4a/	4ee\	4A/	4e\	8C#\L	8C#\L	4cc#\	4ggn\	8ee\L	8ee\L	4ccc#\	4ccc#\
8D\	.	.	.	.	.	.	.	.	8D\	8D\	.	.	8ff#\	8ff#\	.	.
8E\	4A/	4cc#\	4gg\	4AA/	4a/	4ee\	4A/	4e\	8E\	8E\	4cc#\	4ggn\	8gg\	8gg\	4ccc#\	4ccc#\
8F#\	.	.	.	.	.	.	.	.	8F#\	8F#\	.	.	8aa\	8aa\	.	.
8G\	4A/	4cc#\	4gg\	4AA/	4a/	4ee\	4A/	4e\	8G\	8G\	4cc#\	4ggn\	8bb\	8bb\	4ccc#\	4ccc#\
8A\J	.	.	.	.	.	.	.	.	8A\J	8A\J	.	.	8ccc#\J	8ccc#\J	.	.
=142	=142	=142	=142	=142	=142	=142	=142	=142	=142	=142	=142	=142	=142	=142	=142	=142
2B\	2B/	2dd\	2ff#\	4D\	4f#/	4dd\	4F#/	4d\	2B\	2B\	2dd\	2ff#\	2ddd\	2ddd\	2ddd\	2ddd\
.	.	.	.	4r	4r	4r	4r	4r	.	.	.	.	.	.	.	.
8GG/L	4g\	4dd\	4bb\	4D\	4d/	4dd\	4D/	4d\	8GG/L	8GG/L	4b\	4ggn\	4bb\	4bb\	4bb\	4bb\
8AA/J	.	.	.	.	.	.	.	.	8AA/J	8AA/J	.	.	.	.	.	.
=143	=143	=143	=143	=143	=143	=143	=143	=143	=143	=143	=143	=143	=143	=143	=143	=143
8BB\L	4g\	4dd\	4bb\	4D\	4d/	4dd\	4D/	4d\	8BB\L	8BB\L	4b\	4ggn\	4bb\	4bb\	4bb\	4bb\
8C#\	.	.	.	.	.	.	.	.	8C#\	8C#\	.	.	.	.	.	.
8D\	4g\	4dd\	4bb\	4D\	4d/	4dd\	4D/	4d\	8D\	8D\	4b\	4ggn\	4bb\	4bb\	4bb\	4bb\
8E\	.	.	.	.	.	.	.	.	8E\	8E\	.	.	.	.	.	.
8F#\	4g\	4dd\	4bb\	4D\	4d/	4dd\	4D/	4d\	8F#\	8F#\	4b\	4ggn\	4bb\	4bb\	4bb\	4bb\
8G\J	.	.	.	.	.	.	.	.	8G\J	8G\J	.	.	.	.	.	.
=144	=144	=144	=144	=144	=144	=144	=144	=144	=144	=144	=144	=144	=144	=144	=144	=144
8F#\L	2.f#\	2.dd\	(2aa\	4D\	4d/	4dd\	4D/	4d\	8F#\L	8F#\L	2dd\	2dd\	4aa\	4aa\	(2aa\	(2aa\
8G\	.	.	.	.	.	.	.	.	8G\	8G\	.	.	.	.	.	.
8A\	.	.	.	4r	4r	4r	4r	4r	8A\	8A\	.	.	4r	4r	.	.
8B\	.	.	.	.	.	.	.	.	8B\	8B\	.	.	.	.	.	.
8c#\	.	.	4ff#\)	4r	4r	4r	4r	4r	8c#\	8c#\	4r	4r	4r	4r	4ff#\)	4ff#\)
8d\J	.	.	.	.	.	.	.	.	8d\J	8d\J	.	.	.	.	.	.
=145	=145	=145	=145	=145	=145	=145	=145	=145	=145	=145	=145	=145	=145	=145	=145	=145
4G\	4g\	4b\	(8dd#\L	2.r	2.r	2.r	2.r	2.r	4G\	4G\	2.r	2.r	2.r	2.r	(8dd#\L	(8dd#\L
.	.	.	8ee\	.	.	.	.	.	.	.	.	.	.	.	8ee\	8ee\
4r	4r	4r	8ff#\	.	.	.	.	.	4r	4r	.	.	.	.	8ff#\	8ff#\
.	.	.	8gg\	.	.	.	.	.	.	.	.	.	.	.	8gg\	8gg\
4r	4r	4r	8aa\	.	.	.	.	.	4r	4r	.	.	.	.	8aa\	8aa\
.	.	.	8bb\J)	.	.	.	.	.	.	.	.	.	.	.	8bb\J)	8bb\J)
=146	=146	=146	=146	=146	=146	=146	=146	=146	=146	=146	=146	=146	=146	=146	=146	=146
4A\	4d\	4f#/	(8cc#\L	2.r	2.r	2.r	2.r	2.r	4A\	4A\	2.r	2.r	2.r	2.r	(8cc#\L	(8cc#\L
.	.	.	8dd\	.	.	.	.	.	.	.	.	.	.	.	8dd\	8dd\
4r	4r	4r	8ee\	.	.	.	.	.	4r	4r	.	.	.	.	8ee\	8ee\
.	.	.	8ff#\	.	.	.	.	.	.	.	.	.	.	.	8ff#\	8ff#\
4r	4r	4r	8gg\	.	.	.	.	.	4r	4r	.	.	.	.	8gg\	8gg\
.	.	.	8aa\J)	.	.	.	.	.	.	.	.	.	.	.	8aa\J)	8aa\J)
=147	=147	=147	=147	=147	=147	=147	=147	=147	=147	=147	=147	=147	=147	=147	=147	=147
4A\	4E/	4c#/	(8g#\L	2.r	2.r	2.r	2.r	2.r	4A\	4A\	2.r	2.r	2.r	2.r	(8g#\L	(8g#\L
.	.	.	8a\	.	.	.	.	.	.	.	.	.	.	.	8a\	8a\
4r	4r	4r	8b\	.	.	.	.	.	4r	4r	.	.	.	.	8b\	8b\
.	.	.	8cc#\	.	.	.	.	.	.	.	.	.	.	.	8cc#\	8cc#\
4r	4r	4r	8dd\	.	.	.	.	.	4r	4r	.	.	.	.	8dd\	8dd\
.	.	.	8ee\J)	.	.	.	.	.	.	.	.	.	.	.	8ee\J)	8ee\J)
=148	=148	=148	=148	=148	=148	=148	=148	=148	=148	=148	=148	=148	=148	=148	=148	=148
2.r	2.r	2.r	2.r	2.r	2.r	2.r	2.r	2.r	2.r	2.r	2.r	2.r	2.r	2.r	2.r	2.r
=149	=149	=149	=149	=149	=149	=149	=149	=149	=149	=149	=149	=149	=149	=149	=149	=149
2.r	4r	4r	4r	2.r	2.r	2.r	4r	4r	2.r	2.r	2.r	2.r	2.r	2.r	2.r	2.r
.	4r	4r	4r	.	.	.	4r	4r	.	.	.	.	.	.	.	.
.	4D/	4A/	4f#/	.	.	.	4D/	4A/	.	.	.	.	.	.	.	.
=150	=150	=150	=150	=150	=150	=150	=150	=150	=150	=150	=150	=150	=150	=150	=150	=150
2.r	2D/	2A/	2f#/	2.r	2.r	2.r	2D/	2A/	2.r	2.r	2.r	2.r	2.r	2.r	2.r	2.r
.	4D/	4A/	4f#/	.	.	.	4D/	4A/	.	.	.	.	.	.	.	.
=151	=151	=151	=151	=151	=151	=151	=151	=151	=151	=151	=151	=151	=151	=151	=151	=151
!! In Dover, M.151-155 are in [].
4r	2D/	2A/	2f#/	2.r	2.r	2.r	2D/	2A/	4r	4r	2.r	2.r	2.r	2.r	2.r	2.r
4r	.	.	.	.	.	.	.	.	4r	4r	.	.	.	.	.	.
4c\	4D/	4A/	4f#/	.	.	.	4D/	4A/	4c\	4c\	.	.	.	.	.	.
=152	=152	=152	=152	=152	=152	=152	=152	=152	=152	=152	=152	=152	=152	=152	=152	=152
2c\	2D/	2A/	2f#/	2.r	2.r	2.r	2D/	2A/	2c\	2c\	2.r	2.r	2.r	2.r	2.r	4r
.	.	.	.	.	.	.	.	.	.	.	.	.	.	.	.	4r
4c\	4D/	4A/	4f#/	.	.	.	4D/	4A/	4c\	4c\	.	.	.	.	.	8eee\L
.	.	.	.	.	.	.	.	.	.	.	.	.	.	.	.	8ddd\J
=153	=153	=153	=153	=153	=153	=153	=153	=153	=153	=153	=153	=153	=153	=153	=153	=153
2c\	2D/	2A/	2f#/	2.r	2.r	2.r	2D/	2A/	2c\	2c\	2.r	2.r	2.r	2.r	2.r	8ccc\L
.	.	.	.	.	.	.	.	.	.	.	.	.	.	.	.	8bb\
.	.	.	.	.	.	.	.	.	.	.	.	.	.	.	.	8aa\
.	.	.	.	.	.	.	.	.	.	.	.	.	.	.	.	8gg\
4c\	4D/	4A/	4f#/	.	.	.	4D/	4A/	4c\	4c\	.	.	.	.	.	8ff#\
.	.	.	.	.	.	.	.	.	.	.	.	.	.	.	.	8aa\J
*	*	*	*	*	*	*	*clefF4	*clefF4	*	*	*	*	*	*	*	*
=154	=154	=154	=154	=154	=154	=154	=154	=154	=154	=154	=154	=154	=154	=154	=154	=154
4B\	2D/	2B/	2g/	2.r	2.r	2.r	[2.DD/	[2.D/	4B\	4B\	2.r	2.r	2.r	2.r	2.r	4gg\
4r	.	.	.	.	.	.	.	.	4r	4r	.	.	.	.	.	4r
4r	4D/	4B/	4g/	.	.	.	.	.	4r	4r	.	.	.	.	.	8bb\L
.	.	.	.	.	.	.	.	.	.	.	.	.	.	.	.	8aa\J
=155	=155	=155	=155	=155	=155	=155	=155	=155	=155	=155	=155	=155	=155	=155	=155	=155
!!P    C17:Y-15 
4AA"/	2E/	2c#/	2g/	2.r	2.r	2.r	2.DD_/	2.D_/	4AA/	4AA/	2.r	2.r	2.r	2.r	2.r	8gg\L
.	.	.	.	.	.	.	.	.	.	.	.	.	.	.	.	8ff#\
4r	.	.	.	.	.	.	.	.	4r	4r	.	.	.	.	.	8ee\
.	.	.	.	.	.	.	.	.	.	.	.	.	.	.	.	8dd\
4r	4E/	4c#/	4g/	.	.	.	.	.	4r	4r	.	.	.	.	.	8cc#\
.	.	.	.	.	.	.	.	.	.	.	.	.	.	.	.	8ee\J
=156	=156	=156	=156	=156	=156	=156	=156	=156	=156	=156	=156	=156	=156	=156	=156	=156
4D"\	2F#/	2d/	2f#/	2.r	2.r	2.r	2.DD_/	2.D_/	2.r	4r	2.r	2.r	2.r	2.r	2.r	4dd\
4r	.	.	.	.	.	.	.	.	.	4r	.	.	.	.	.	4r
4r	4A/	4d/	8ee\L	.	.	.	.	.	.	8e\L	.	.	.	.	.	4r
.	.	.	8dd\J	.	.	.	.	.	.	8d\J	.	.	.	.	.	.
=157	=157	=157	=157	=157	=157	=157	=157	=157	=157	=157	=157	=157	=157	=157	=157	=157
4D"\	2c\	2f#/	8cc/L	2.r	2.r	2.r	2.DD_/	2.D_/	2.r	8c\L	2.r	2.r	2.r	2.r	2.r	2.ff#\
.	.	.	8b/	.	.	.	.	.	.	8B\	.	.	.	.	.	.
4r	.	.	8a/	.	.	.	.	.	.	8A\	.	.	.	.	.	.
.	.	.	8g/	.	.	.	.	.	.	8G\	.	.	.	.	.	.
4r	4c\	4f#/	8f#/	.	.	.	.	.	.	8F#\	.	.	.	.	.	.
.	.	.	8a/J	.	.	.	.	.	.	8A\J	.	.	.	.	.	.
=158	=158	=158	=158	=158	=158	=158	=158	=158	=158	=158	=158	=158	=158	=158	=158	=158
4D"\	2B/	2g/	4g/	2.r	2.r	2.r	2.DD_/	2.D_/	2.r	4G\	2.r	2.r	2.r	2.r	2.r	4gg\
4r	.	.	4r	.	.	.	.	.	.	4r	.	.	.	.	.	4r
4r	4B/	4g/	8b/L	.	.	.	.	.	.	8B\L	.	.	.	.	.	4r
.	.	.	8a/J	.	.	.	.	.	.	8A\J	.	.	.	.	.	.
=159	=159	=159	=159	=159	=159	=159	=159	=159	=159	=159	=159	=159	=159	=159	=159	=159
4D"\	2E/	2c#/	8g/L	2.r	2.r	2.r	2.DD_/	2.D_/	2.r	8G\L	2.r	2.r	2.r	2.r	2.r	2.ccc#\
.	.	.	8f#/	.	.	.	.	.	.	8F#\	.	.	.	.	.	.
4r	.	.	8e/	.	.	.	.	.	.	8E\	.	.	.	.	.	.
.	.	.	8d/	.	.	.	.	.	.	8D\	.	.	.	.	.	.
4r	4G/	4c#/	8c#/	.	.	.	.	.	.	8C#\	.	.	.	.	.	.
.	.	.	8e/J	.	.	.	.	.	.	8E\J	.	.	.	.	.	.
=160	=160	=160	=160	=160	=160	=160	=160	=160	=160	=160	=160	=160	=160	=160	=160	=160
4D"\	4F#/	4d/	4d/	4r	4r	4r	4DD/]	4D/]	4r	4D\	4r	4r	4r	4r	4r	4ddd\
4r	4r	4r	4r	4r	4r	4r	4r	4r	4r	4r	4r	4r	4r	4r	4r	4r
=:|!@	=:|!@	=:|!@	=:|!@	=:|!@	=:|!@	=:|!@	=:|!@	=:|!@	=:|!@	=:|!@	=:|!@	=:|!@	=:|!@	=:|!@	=:|!@	=:|!@
!! Men. D. C.
*-	*-	*-	*-	*-	*-	*-	*-	*-	*-	*-	*-	*-	*-	*-	*-	*-
!!!CDT: 1732/3/31/-1809/5/31/
!!!OCO: Johann Peter Salomon
!!!OCY: Oesterreich
!!!ODT: 1793///-1794///
!!!MPD: 1794/3/3/
!!!OPC: London
!!!PPR: Ernst Eulenburg, Ltd.
!!!PPP: London
!!!PDT: 1880///
!!!AGN: symphony
!!!AST: classical, orchestral
!!!AMT: simple triple
!!!YOR: Ernst Praetorius, editor
!!!AIN: cbass cello clars cor fagot flt oboe timpa tromp viola violn
!!!EEV: 1.0
!!!RDT: 1996 April 25
!!!YER: 1996 August 10
!!!YEN: United States of America
!!!EFL: 3/4
!!!ENC: Frances Bennion
!!!EED: W.B. Hewlett
!!!VTS: 3967431185
